dokkev/optimo_ros/optimo_safety_monitor/baselines/baseline.csv
q1,q2,q3,q4,q5,q6,q7,fx,fy,fz
2.71906,-0.0404472,-0.764237,0.0872652,-1.78447,0.0163859,0.0336165,1.43593,-1.07383,-4.69739
2.71906,-0.0404472,-0.764237,0.0872652,-1.78447,0.0163859,0.0336165,1.43601,-1.074,-4.69752
2.71906,-0.0404472,-0.764237,0.0872652,-1.78447,0.0163859,0.0336165,1.43803,-1.07265,-4.69924
2.71906,-0.0404472,-0.764237,0.0872652,-1.78447,0.0163859,0.0336165,1.43985,-1.07028,-4.70067
2.71906,-0.0404472,-0.764237,0.0872652,-1.78447,0.0163859,0.0336165,1.44157,-1.06754,-4.70224
2.71906,-0.0404472,-0.764237,0.0872652,-1.78447,0.0163859,0.0336165,1.44182,-1.06994,-4.70212
2.71906,-0.0404472,-0.764237,0.0872652,-1.78447,0.0163859,0.0336165,1.43378,-1.07294,-4.70224
2.71906,-0.0404472,-0.764237,0.0872652,-1.78447,0.0163859,0.0336165,1.42665,-1.07374,-4.70002
2.71906,-0.0404472,-0.764237,0.0872652,-1.78447,0.0163859,0.0336165,1.42564,-1.07499,-4.70216
2.71906,-0.0404472,-0.764237,0.0872652,-1.78447,0.0163859,0.0336165,1.43295,-1.07444,-4.6984
2.71906,-0.0404472,-0.764237,0.0872652,-1.78447,0.0163859,0.0336165,1.43298,-1.07454,-4.69846
2.71906,-0.0404472,-0.764237,0.0872652,-1.78447,0.0163859,0.0336165,1.43826,-1.07479,-4.69933
2.71906,-0.0404472,-0.764237,0.0872652,-1.78447,0.0163859,0.0336165,1.43403,-1.07437,-4.70228
2.71906,-0.0404472,-0.764237,0.0872652,-1.78447,0.0163859,0.0336165,1.43412,-1.0762,-4.70211
2.71906,-0.0404472,-0.764237,0.0872652,-1.78447,0.0163859,0.0336165,1.44011,-1.07353,-4.70058
2.71906,-0.0404472,-0.764237,0.0872652,-1.78447,0.0163859,0.0336165,1.44325,-1.07326,-4.69983
2.71906,-0.0404472,-0.764237,0.0872652,-1.78447,0.0163859,0.0336165,1.44322,-1.07222,-4.70012
2.71906,-0.0404472,-0.764237,0.0872652,-1.78447,0.0163859,0.0336165,1.44219,-1.07347,-4.70222
2.71906,-0.0404472,-0.764211,0.0872631,-1.78446,0.0163912,0.0336176,1.44116,-1.07352,-4.69828
2.71906,-0.0404472,-0.764211,0.0872631,-1.78446,0.0163912,0.0336176,1.44108,-1.07231,-4.69845
2.71906,-0.0404472,-0.764211,0.0872631,-1.78446,0.0163912,0.0336176,1.437,-1.07386,-4.70125
2.71906,-0.0404472,-0.764211,0.0872631,-1.78446,0.0163912,0.0336176,1.43034,-1.06913,-4.70338
2.71906,-0.0404472,-0.764211,0.0872631,-1.78446,0.0163912,0.0336176,1.43139,-1.06896,-4.70108
2.71906,-0.0404472,-0.764211,0.0872631,-1.78446,0.0163912,0.0336176,1.4381,-1.07376,-4.69905
2.71906,-0.0404472,-0.764211,0.0872631,-1.78446,0.0163912,0.0336176,1.44329,-1.07332,-4.69989
2.71906,-0.0404472,-0.764211,0.0872631,-1.78446,0.0163912,0.0336176,1.44014,-1.07362,-4.70064
2.71906,-0.0404472,-0.764211,0.0872631,-1.78446,0.0163912,0.0336176,1.44519,-1.07192,-4.70157
2.71906,-0.0404472,-0.764211,0.0872631,-1.78446,0.0163912,0.0336176,1.44316,-1.07218,-4.70007
2.71906,-0.0404472,-0.764211,0.0872631,-1.78446,0.0163912,0.0336176,1.444,-1.07008,-4.69781
2.71906,-0.0404472,-0.764211,0.0872631,-1.78446,0.0163912,0.0336176,1.44403,-1.071,-4.69742
2.71906,-0.0404472,-0.764211,0.0872631,-1.78446,0.0163912,0.0336176,1.44565,-1.06635,-4.69913
2.71906,-0.0404472,-0.764211,0.0872631,-1.78446,0.0163912,0.0336176,1.44919,-1.06945,-4.69851
2.71906,-0.0404472,-0.764211,0.0872631,-1.78446,0.0163912,0.0336176,1.45347,-1.07085,-4.69522
2.71906,-0.0404472,-0.764211,0.0872631,-1.78446,0.0163912,0.0336176,1.4534,-1.07079,-4.70132
2.71906,-0.0404472,-0.764211,0.0872631,-1.78446,0.0163912,0.0336176,1.45138,-1.07102,-4.69975
2.71906,-0.0404472,-0.764211,0.0872631,-1.78446,0.0163912,0.0336176,1.44088,-1.07023,-4.70459
2.71906,-0.0404472,-0.764211,0.0872631,-1.78446,0.0163912,0.0336176,1.43895,-1.07236,-4.70293
2.71906,-0.0404472,-0.764211,0.0872631,-1.78446,0.0163912,0.0336176,1.43378,-1.07287,-4.70216
2.71907,-0.040443,-0.764218,0.0872524,-1.78446,0.0163848,0.0336208,1.43169,-1.07293,-4.70053
2.71907,-0.040443,-0.764218,0.0872524,-1.78446,0.0163848,0.0336208,1.43466,-1.07078,-4.69995
2.71907,-0.040443,-0.764218,0.0872524,-1.78446,0.0163848,0.0336208,1.43777,-1.07061,-4.69932
2.71907,-0.040443,-0.764218,0.0872524,-1.78446,0.0163848,0.0336208,1.4411,-1.07335,-4.69818
2.71907,-0.040443,-0.764218,0.0872524,-1.78446,0.0163848,0.0336208,1.44125,-1.07534,-4.69813
2.71907,-0.040443,-0.764218,0.0872524,-1.78446,0.0163848,0.0336208,1.43709,-1.07468,-4.69535
2.71907,-0.040443,-0.764218,0.0872524,-1.78446,0.0163848,0.0336208,1.44309,-1.07314,-4.69354
2.71907,-0.040443,-0.764218,0.0872524,-1.78446,0.0163848,0.0336208,1.43595,-1.07396,-4.69129
2.71907,-0.040443,-0.764218,0.0872524,-1.78446,0.0163848,0.0336208,1.43495,-1.07407,-4.69362
2.71907,-0.040443,-0.764218,0.0872524,-1.78446,0.0163848,0.0336208,1.43986,-1.07102,-4.69441
2.71907,-0.040443,-0.764218,0.0872524,-1.78446,0.0163848,0.0336208,1.44086,-1.06974,-4.69846
2.71907,-0.040443,-0.764218,0.0872524,-1.78446,0.0163848,0.0336208,1.43391,-1.07319,-4.70243
2.71907,-0.040443,-0.764218,0.0872524,-1.78446,0.0163848,0.0336208,1.42849,-1.07163,-4.70164
2.71907,-0.040443,-0.764218,0.0872524,-1.78446,0.0163848,0.0336208,1.41639,-1.07617,-4.69842
2.71907,-0.040443,-0.764218,0.0872524,-1.78446,0.0163848,0.0336208,1.41438,-1.0763,-4.69683
2.71907,-0.040443,-0.764218,0.0872524,-1.78446,0.0163848,0.0336208,1.41745,-1.07596,-4.70223
2.71907,-0.040443,-0.764218,0.0872524,-1.78446,0.0163848,0.0336208,1.4287,-1.07354,-4.70155
2.71907,-0.040443,-0.764218,0.0872524,-1.78446,0.0163848,0.0336208,1.42868,-1.07353,-4.70155
2.71907,-0.040443,-0.764218,0.0872524,-1.78446,0.0163848,0.0336208,1.42566,-1.07394,-4.70238
2.71907,-0.040443,-0.764218,0.0872524,-1.78446,0.0163848,0.0336208,1.42278,-1.07636,-4.7032
2.71907,-0.0404451,-0.764211,0.0872609,-1.78444,0.0163731,0.0336219,1.41924,-1.07232,-4.70418
2.71907,-0.0404451,-0.764211,0.0872609,-1.78444,0.0163731,0.0336219,1.41614,-1.07258,-4.70498
2.71907,-0.0404451,-0.764211,0.0872609,-1.78444,0.0163731,0.0336219,1.42468,-1.07425,-4.70492
2.71907,-0.0404451,-0.764211,0.0872609,-1.78444,0.0163731,0.0336219,1.43398,-1.07328,-4.70253
2.71907,-0.0404451,-0.764211,0.0872609,-1.78444,0.0163731,0.0336219,1.43399,-1.07431,-4.70222
2.71907,-0.0404451,-0.764211,0.0872609,-1.78444,0.0163731,0.0336219,1.43089,-1.07467,-4.70302
2.71907,-0.0404451,-0.764211,0.0872609,-1.78444,0.0163731,0.0336219,1.43247,-1.07006,-4.70473
2.71907,-0.0404451,-0.764211,0.0872609,-1.78444,0.0163731,0.0336219,1.43253,-1.07043,-4.70464
2.71907,-0.0404451,-0.764211,0.0872609,-1.78444,0.0163731,0.0336219,1.44278,-1.06812,-4.70011
2.71907,-0.0404451,-0.764211,0.0872609,-1.78444,0.0163731,0.0336219,1.44092,-1.07032,-4.69849
2.71907,-0.0404451,-0.764211,0.0872609,-1.78444,0.0163731,0.0336219,1.43782,-1.07069,-4.69931
2.71907,-0.0404451,-0.764211,0.0872609,-1.78444,0.0163731,0.0336219,1.43799,-1.07264,-4.69921
2.71907,-0.0404451,-0.764211,0.0872609,-1.78444,0.0163731,0.0336219,1.42668,-1.07385,-4.70008
2.71907,-0.0404451,-0.764211,0.0872609,-1.78444,0.0163731,0.0336219,1.43182,-1.07325,-4.7008
2.71907,-0.0404451,-0.764211,0.0872609,-1.78444,0.0163731,0.0336219,1.43192,-1.07444,-4.70061
2.71907,-0.0404451,-0.764211,0.0872609,-1.78444,0.0163731,0.0336219,1.42857,-1.07238,-4.70153
2.71907,-0.0404451,-0.764211,0.0872609,-1.78444,0.0163731,0.0336219,1.42789,-1.07571,-4.70386
2.71907,-0.0404451,-0.764211,0.0872609,-1.78444,0.0163731,0.0336219,1.43096,-1.07529,-4.70298
2.71907,-0.0404451,-0.764211,0.0872609,-1.78444,0.0163731,0.0336219,1.44035,-1.07612,-4.70043
2.71907,-0.0404451,-0.764211,0.0872609,-1.78444,0.0163731,0.0336219,1.4424,-1.07587,-4.70197
2.71907,-0.040443,-0.764218,0.0872652,-1.78447,0.0163912,0.0336134,1.44235,-1.07578,-4.70189
2.71907,-0.040443,-0.764218,0.0872652,-1.78447,0.0163912,0.0336134,1.44236,-1.07575,-4.70186
2.71907,-0.040443,-0.764218,0.0872652,-1.78447,0.0163912,0.0336134,1.43604,-1.07446,-4.70354
2.71907,-0.040443,-0.764218,0.0872652,-1.78447,0.0163912,0.0336134,1.43273,-1.07258,-4.70462
2.71907,-0.040443,-0.764218,0.0872652,-1.78447,0.0163912,0.0336134,1.43243,-1.06881,-4.70488
2.71907,-0.040443,-0.764218,0.0872652,-1.78447,0.0163912,0.0336134,1.43596,-1.07287,-4.70389
2.71907,-0.040443,-0.764218,0.0872652,-1.78447,0.0163912,0.0336134,1.43599,-1.07286,-4.70389
2.71907,-0.040443,-0.764218,0.0872652,-1.78447,0.0163912,0.0336134,1.4381,-1.07374,-4.7052
2.71907,-0.040443,-0.764218,0.0872652,-1.78447,0.0163912,0.0336134,1.44426,-1.07312,-4.70366
2.71907,-0.040443,-0.764218,0.0872652,-1.78447,0.0163912,0.0336134,1.44214,-1.0734,-4.70217
2.71907,-0.040443,-0.764218,0.0872652,-1.78447,0.0163912,0.0336134,1.44296,-1.07121,-4.6998
2.71907,-0.040443,-0.764218,0.0872652,-1.78447,0.0163912,0.0336134,1.43596,-1.07381,-4.69734
2.71907,-0.040443,-0.764218,0.0872652,-1.78447,0.0163912,0.0336134,1.42999,-1.07554,-4.69926
2.71907,-0.040443,-0.764218,0.0872652,-1.78447,0.0163912,0.0336134,1.42894,-1.07568,-4.70159
2.71907,-0.040443,-0.764218,0.0872652,-1.78447,0.0163912,0.0336134,1.4287,-1.07364,-4.70159
2.71907,-0.040443,-0.764218,0.0872652,-1.78447,0.0163912,0.0336134,1.42969,-1.07334,-4.69915
2.71907,-0.040443,-0.764218,0.0872652,-1.78447,0.0163912,0.0336134,1.42965,-1.07256,-4.69904
2.71907,-0.040443,-0.764218,0.0872652,-1.78447,0.0163912,0.0336134,1.43985,-1.07038,-4.70075
2.71907,-0.040443,-0.764218,0.0872652,-1.78447,0.0163912,0.0336134,1.43798,-1.07258,-4.69915
2.71907,-0.040443,-0.764218,0.0872652,-1.78447,0.0163912,0.0336134,1.4319,-1.07518,-4.70067
2.71905,-0.0404366,-0.764201,0.0872694,-1.78446,0.0163902,0.0336304,1.42357,-1.07422,-4.69475
2.71905,-0.0404366,-0.764201,0.0872694,-1.78446,0.0163902,0.0336304,1.42999,-1.07556,-4.69312
2.71905,-0.0404366,-0.764201,0.0872694,-1.78446,0.0163902,0.0336304,1.42591,-1.07612,-4.69632
2.71905,-0.0404366,-0.764201,0.0872694,-1.78446,0.0163902,0.0336304,1.42783,-1.07495,-4.69757
2.71905,-0.0404366,-0.764201,0.0872694,-1.78446,0.0163902,0.0336304,1.43179,-1.07318,-4.70073
2.71905,-0.0404366,-0.764201,0.0872694,-1.78446,0.0163902,0.0336304,1.43597,-1.07278,-4.69763
2.71905,-0.0404366,-0.764201,0.0872694,-1.78446,0.0163902,0.0336304,1.43397,-1.07503,-4.70223
2.71905,-0.0404366,-0.764201,0.0872694,-1.78446,0.0163902,0.0336304,1.42633,-1.07135,-4.70012
2.71905,-0.0404366,-0.764201,0.0872694,-1.78446,0.0163902,0.0336304,1.42613,-1.06939,-4.70023
2.71905,-0.0404366,-0.764201,0.0872694,-1.78446,0.0163902,0.0336304,1.4272,-1.06936,-4.69798
2.71905,-0.0404366,-0.764201,0.0872694,-1.78446,0.0163902,0.0336304,1.43441,-1.06859,-4.69412
2.71905,-0.0404366,-0.764201,0.0872694,-1.78446,0.0163902,0.0336304,1.42834,-1.0694,-4.68964
2.71905,-0.0404366,-0.764201,0.0872694,-1.78446,0.0163902,0.0336304,1.43447,-1.06865,-4.69413
2.71905,-0.0404366,-0.764201,0.0872694,-1.78446,0.0163902,0.0336304,1.44567,-1.06543,-4.69327
2.71905,-0.0404366,-0.764201,0.0872694,-1.78446,0.0163902,0.0336304,1.44197,-1.07031,-4.69625
2.71905,-0.0404366,-0.764201,0.0872694,-1.78446,0.0163902,0.0336304,1.44214,-1.07229,-4.69616
2.71905,-0.0404366,-0.764201,0.0872694,-1.78446,0.0163902,0.0336304,1.43566,-1.07047,-4.6978
2.71905,-0.0404366,-0.764201,0.0872694,-1.78446,0.0163902,0.0336304,1.42933,-1.06908,-4.69942
2.71905,-0.0404366,-0.764201,0.0872694,-1.78446,0.0163902,0.0336304,1.42848,-1.07129,-4.7018
2.71905,-0.0404366,-0.764201,0.0872694,-1.78446,0.0163902,0.0336304,1.43173,-1.07291,-4.70096
2.71905,-0.0404366,-0.764201,0.0872694,-1.78446,0.0163902,0.0336304,1.43773,-1.07024,-4.69939
2.71907,-0.0404494,-0.764224,0.0872694,-1.78447,0.0163784,0.0336112,1.44018,-1.07422,-4.70058
2.71907,-0.0404494,-0.764224,0.0872694,-1.78447,0.0163784,0.0336112,1.43904,-1.0735,-4.70272
2.71907,-0.0404494,-0.764224,0.0872694,-1.78447,0.0163784,0.0336112,1.43487,-1.07379,-4.70572
2.71907,-0.0404494,-0.764224,0.0872694,-1.78447,0.0163784,0.0336112,1.43799,-1.07348,-4.70497
2.71907,-0.0404494,-0.764224,0.0872694,-1.78447,0.0163784,0.0336112,1.43803,-1.07416,-4.70495
2.71907,-0.0404494,-0.764224,0.0872694,-1.78447,0.0163784,0.0336112,1.44402,-1.07142,-4.7038
2.71907,-0.0404494,-0.764224,0.0872694,-1.78447,0.0163784,0.0336112,1.43994,-1.07187,-4.70073
2.71907,-0.0404494,-0.764224,0.0872694,-1.78447,0.0163784,0.0336112,1.43382,-1.07264,-4.7024
2.71907,-0.0404494,-0.764224,0.0872694,-1.78447,0.0163784,0.0336112,1.43075,-1.07308,-4.70329
2.71907,-0.0404494,-0.764224,0.0872694,-1.78447,0.0163784,0.0336112,1.4224,-1.07225,-4.70362
2.71907,-0.0404494,-0.764224,0.0872694,-1.78447,0.0163784,0.0336112,1.42546,-1.0719,-4.70283
2.71907,-0.0404494,-0.764224,0.0872694,-1.78447,0.0163784,0.0336112,1.42328,-1.07026,-4.70145
2.71907,-0.0404494,-0.764224,0.0872694,-1.78447,0.0163784,0.0336112,1.42888,-1.07417,-4.70204
2.71907,-0.0404494,-0.764224,0.0872694,-1.78447,0.0163784,0.0336112,1.4327,-1.07118,-4.69895
2.71907,-0.0404494,-0.764224,0.0872694,-1.78447,0.0163784,0.0336112,1.43601,-1.0728,-4.69802
2.71907,-0.0404494,-0.764224,0.0872694,-1.78447,0.0163784,0.0336112,1.42761,-1.0718,-4.70437
2.71907,-0.0404494,-0.764224,0.0872694,-1.78447,0.0163784,0.0336112,1.43068,-1.0714,-4.70357
2.71907,-0.0404494,-0.764224,0.0872694,-1.78447,0.0163784,0.0336112,1.43379,-1.07144,-4.70267
2.71907,-0.0404494,-0.764224,0.0872694,-1.78447,0.0163784,0.0336112,1.43738,-1.06651,-4.69967
2.71907,-0.0404494,-0.764224,0.0872694,-1.78447,0.0163784,0.0336112,1.4407,-1.06837,-4.69857
2.71906,-0.0404408,-0.764209,0.0872609,-1.78446,0.016387,0.0336176,1.43574,-1.07084,-4.69772
2.71906,-0.0404408,-0.764209,0.0872609,-1.78446,0.016387,0.0336176,1.44101,-1.07214,-4.6983
2.71906,-0.0404408,-0.764209,0.0872609,-1.78446,0.016387,0.0336176,1.43911,-1.07426,-4.69666
2.71906,-0.0404408,-0.764209,0.0872609,-1.78446,0.016387,0.0336176,1.4391,-1.07427,-4.69666
2.71906,-0.0404408,-0.764209,0.0872609,-1.78446,0.016387,0.0336176,1.43689,-1.0725,-4.69519
2.71906,-0.0404408,-0.764209,0.0872609,-1.78446,0.016387,0.0336176,1.43052,-1.07077,-4.69692
2.71906,-0.0404408,-0.764209,0.0872609,-1.78446,0.016387,0.0336176,1.44301,-1.07133,-4.6998
2.71906,-0.0404408,-0.764209,0.0872609,-1.78446,0.016387,0.0336176,1.44299,-1.07135,-4.69982
2.71906,-0.0404408,-0.764209,0.0872609,-1.78446,0.016387,0.0336176,1.44319,-1.07352,-4.6999
2.71906,-0.0404408,-0.764209,0.0872609,-1.78446,0.016387,0.0336176,1.44273,-1.06776,-4.7002
2.71906,-0.0404408,-0.764209,0.0872609,-1.78446,0.016387,0.0336176,1.43142,-1.06906,-4.70113
2.71906,-0.0404408,-0.764209,0.0872609,-1.78446,0.016387,0.0336176,1.43145,-1.06904,-4.70108
2.71906,-0.0404408,-0.764209,0.0872609,-1.78446,0.016387,0.0336176,1.43233,-1.06876,-4.70482
2.71906,-0.0404408,-0.764209,0.0872609,-1.78446,0.016387,0.0336176,1.42941,-1.071,-4.69934
2.71906,-0.0404408,-0.764209,0.0872609,-1.78446,0.016387,0.0336176,1.42957,-1.0731,-4.69939
2.71906,-0.0404408,-0.764209,0.0872609,-1.78446,0.016387,0.0336176,1.4315,-1.07088,-4.69478
2.71906,-0.0404408,-0.764209,0.0872609,-1.78446,0.016387,0.0336176,1.4334,-1.0698,-4.69614
2.71906,-0.0404408,-0.764209,0.0872609,-1.78446,0.016387,0.0336176,1.42756,-1.07198,-4.6918
2.71906,-0.0404408,-0.764209,0.0872609,-1.78446,0.016387,0.0336176,1.42054,-1.07481,-4.69569
2.71906,-0.0404408,-0.764209,0.0872609,-1.78446,0.016387,0.0336176,1.41842,-1.07427,-4.69406
2.71905,-0.0404494,-0.764224,0.0872588,-1.78446,0.016388,0.0336379,1.42372,-1.07447,-4.69492
2.71905,-0.0404494,-0.764224,0.0872588,-1.78446,0.016388,0.0336379,1.42787,-1.07406,-4.69803
2.71905,-0.0404494,-0.764224,0.0872588,-1.78446,0.016388,0.0336379,1.4317,-1.07125,-4.70126
2.71905,-0.0404494,-0.764224,0.0872588,-1.78446,0.016388,0.0336379,1.4336,-1.07028,-4.7027
2.71905,-0.0404494,-0.764224,0.0872588,-1.78446,0.016388,0.0336379,1.42957,-1.07145,-4.69969
2.71905,-0.0404494,-0.764224,0.0872588,-1.78446,0.016388,0.0336379,1.43156,-1.07107,-4.70108
2.71905,-0.0404494,-0.764224,0.0872588,-1.78446,0.016388,0.0336379,1.43753,-1.06828,-4.69948
2.71905,-0.0404494,-0.764224,0.0872588,-1.78446,0.016388,0.0336379,1.44084,-1.06997,-4.69866
2.71905,-0.0404494,-0.764224,0.0872588,-1.78446,0.016388,0.0336379,1.44063,-1.06801,-4.69874
2.71905,-0.0404494,-0.764224,0.0872588,-1.78446,0.016388,0.0336379,1.4434,-1.06376,-4.69812
2.71905,-0.0404494,-0.764224,0.0872588,-1.78446,0.016388,0.0336379,1.4388,-1.06997,-4.69706
2.71905,-0.0404494,-0.764224,0.0872588,-1.78446,0.016388,0.0336379,1.44162,-1.06721,-4.69635
2.71905,-0.0404494,-0.764224,0.0872588,-1.78446,0.016388,0.0336379,1.44679,-1.06723,-4.69702
2.71905,-0.0404494,-0.764224,0.0872588,-1.78446,0.016388,0.0336379,1.44692,-1.06902,-4.69681
2.71905,-0.0404494,-0.764224,0.0872588,-1.78446,0.016388,0.0336379,1.444,-1.07007,-4.69776
2.71905,-0.0404494,-0.764224,0.0872588,-1.78446,0.016388,0.0336379,1.43274,-1.07145,-4.69874
2.71905,-0.0404494,-0.764224,0.0872588,-1.78446,0.016388,0.0336379,1.42952,-1.06989,-4.69968
2.71905,-0.0404494,-0.764224,0.0872588,-1.78446,0.016388,0.0336379,1.43173,-1.07157,-4.70107
2.71905,-0.0404494,-0.764224,0.0872588,-1.78446,0.016388,0.0336379,1.43777,-1.07032,-4.69944
2.71907,-0.0404387,-0.764222,0.0872609,-1.78445,0.0163752,0.0336347,1.43192,-1.07353,-4.70099
2.71907,-0.0404387,-0.764222,0.0872609,-1.78445,0.0163752,0.0336347,1.4316,-1.07113,-4.70114
2.71907,-0.0404387,-0.764222,0.0872609,-1.78445,0.0163752,0.0336347,1.43154,-1.07106,-4.7011
2.71907,-0.0404387,-0.764222,0.0872609,-1.78445,0.0163752,0.0336347,1.43579,-1.07111,-4.69797
2.71907,-0.0404387,-0.764222,0.0872609,-1.78445,0.0163752,0.0336347,1.43585,-1.07118,-4.69802
2.71907,-0.0404387,-0.764222,0.0872609,-1.78445,0.0163752,0.0336347,1.42993,-1.07499,-4.6993
2.71907,-0.0404387,-0.764222,0.0872609,-1.78445,0.0163752,0.0336347,1.4317,-1.07147,-4.70099
2.71907,-0.0404387,-0.764222,0.0872609,-1.78445,0.0163752,0.0336347,1.43085,-1.0737,-4.70336
2.71907,-0.0404387,-0.764222,0.0872609,-1.78445,0.0163752,0.0336347,1.43786,-1.0718,-4.6991
2.71907,-0.0404387,-0.764222,0.0872609,-1.78445,0.0163752,0.0336347,1.43788,-1.0718,-4.6991
2.71907,-0.0404387,-0.764222,0.0872609,-1.78445,0.0163752,0.0336347,1.43808,-1.07386,-4.69912
2.71907,-0.0404387,-0.764222,0.0872609,-1.78445,0.0163752,0.0336347,1.43793,-1.07343,-4.69918
2.71907,-0.0404387,-0.764222,0.0872609,-1.78445,0.0163752,0.0336347,1.43585,-1.07347,-4.69752
2.71907,-0.0404387,-0.764222,0.0872609,-1.78445,0.0163752,0.0336347,1.43593,-1.07355,-4.69753
2.71907,-0.0404387,-0.764222,0.0872609,-1.78445,0.0163752,0.0336347,1.42871,-1.07333,-4.70177
2.71907,-0.0404387,-0.764222,0.0872609,-1.78445,0.0163752,0.0336347,1.42889,-1.07543,-4.70181
2.71907,-0.0404387,-0.764222,0.0872609,-1.78445,0.0163752,0.0336347,1.42676,-1.07561,-4.70022
2.71907,-0.0404387,-0.764222,0.0872609,-1.78445,0.0163752,0.0336347,1.41869,-1.0769,-4.70015
2.71907,-0.0404387,-0.764222,0.0872609,-1.78445,0.0163752,0.0336347,1.41968,-1.07662,-4.70392
2.71907,-0.0404387,-0.764222,0.0872609,-1.78445,0.0163752,0.0336347,1.42143,-1.07365,-4.70544
2.71906,-0.0404579,-0.76422,0.0872545,-1.78446,0.0163912,0.0336315,1.41933,-1.07383,-4.7039
2.71906,-0.0404579,-0.76422,0.0872545,-1.78446,0.0163912,0.0336315,1.42243,-1.07349,-4.70306
2.71906,-0.0404579,-0.76422,0.0872545,-1.78446,0.0163912,0.0336315,1.42548,-1.072,-4.70245
2.71906,-0.0404579,-0.76422,0.0872545,-1.78446,0.0163912,0.0336315,1.42547,-1.0719,-4.70239
2.71906,-0.0404579,-0.76422,0.0872545,-1.78446,0.0163912,0.0336315,1.43256,-1.07073,-4.70475
2.71906,-0.0404579,-0.76422,0.0872545,-1.78446,0.0163912,0.0336315,1.43253,-1.07066,-4.70472
2.71906,-0.0404579,-0.76422,0.0872545,-1.78446,0.0163912,0.0336315,1.4417,-1.06767,-4.70236
2.71906,-0.0404579,-0.76422,0.0872545,-1.78446,0.0163912,0.0336315,1.43962,-1.06791,-4.70701
2.71906,-0.0404579,-0.76422,0.0872545,-1.78446,0.0163912,0.0336315,1.43679,-1.07069,-4.70773
2.71906,-0.0404579,-0.76422,0.0872545,-1.78446,0.0163912,0.0336315,1.43993,-1.07053,-4.70702
2.71906,-0.0404579,-0.76422,0.0872545,-1.78446,0.0163912,0.0336315,1.43678,-1.07082,-4.70781
2.71906,-0.0404579,-0.76422,0.0872545,-1.78446,0.0163912,0.0336315,1.44556,-1.06538,-4.70556
2.71906,-0.0404579,-0.76422,0.0872545,-1.78446,0.0163912,0.0336315,1.44332,-1.06363,-4.70412
2.71906,-0.0404579,-0.76422,0.0872545,-1.78446,0.0163912,0.0336315,1.44171,-1.06817,-4.70236
2.71906,-0.0404579,-0.76422,0.0872545,-1.78446,0.0163912,0.0336315,1.44176,-1.06809,-4.70229
2.71906,-0.0404579,-0.76422,0.0872545,-1.78446,0.0163912,0.0336315,1.4502,-1.06926,-4.70225
2.71906,-0.0404579,-0.76422,0.0872545,-1.78446,0.0163912,0.0336315,1.45342,-1.0709,-4.70142
2.71906,-0.0404579,-0.76422,0.0872545,-1.78446,0.0163912,0.0336315,1.44906,-1.06914,-4.69864
2.71906,-0.0404579,-0.76422,0.0872545,-1.78446,0.0163912,0.0336315,1.45014,-1.06901,-4.69629
2.71906,-0.0404579,-0.76422,0.0872545,-1.78446,0.0163912,0.0336315,1.44586,-1.06766,-4.69951
2.71906,-0.0404366,-0.764237,0.0872524,-1.78447,0.0163657,0.0336219,1.4364,-1.06676,-4.70204
2.71906,-0.0404366,-0.764237,0.0872524,-1.78447,0.0163657,0.0336219,1.43959,-1.06808,-4.70098
2.71906,-0.0404366,-0.764237,0.0872524,-1.78447,0.0163657,0.0336219,1.44393,-1.0695,-4.69775
2.71906,-0.0404366,-0.764237,0.0872524,-1.78447,0.0163657,0.0336219,1.44294,-1.07083,-4.6999
2.71906,-0.0404366,-0.764237,0.0872524,-1.78447,0.0163657,0.0336219,1.4288,-1.07494,-4.70151
2.71906,-0.0404366,-0.764237,0.0872524,-1.78447,0.0163657,0.0336219,1.42365,-1.07548,-4.70076
2.71906,-0.0404366,-0.764237,0.0872524,-1.78447,0.0163657,0.0336219,1.42767,-1.07453,-4.69772
2.71906,-0.0404366,-0.764237,0.0872524,-1.78447,0.0163657,0.0336219,1.43881,-1.07113,-4.69679
2.71906,-0.0404366,-0.764237,0.0872524,-1.78447,0.0163657,0.0336219,1.44304,-1.07255,-4.6997
2.71906,-0.0404366,-0.764237,0.0872524,-1.78447,0.0163657,0.0336219,1.44607,-1.07214,-4.69881
2.71906,-0.0404366,-0.764237,0.0872524,-1.78447,0.0163657,0.0336219,1.44608,-1.07261,-4.6986
2.71906,-0.0404366,-0.764237,0.0872524,-1.78447,0.0163657,0.0336219,1.44591,-1.07045,-4.69868
2.71906,-0.0404366,-0.764237,0.0872524,-1.78447,0.0163657,0.0336219,1.44696,-1.06929,-4.69663
2.71906,-0.0404366,-0.764237,0.0872524,-1.78447,0.0163657,0.0336219,1.44703,-1.06945,-4.69677
2.71906,-0.0404366,-0.764237,0.0872524,-1.78447,0.0163657,0.0336219,1.44695,-1.069,-4.69682
2.71906,-0.0404366,-0.764237,0.0872524,-1.78447,0.0163657,0.0336219,1.449,-1.06876,-4.69834
2.71906,-0.0404366,-0.764237,0.0872524,-1.78447,0.0163657,0.0336219,1.44203,-1.07282,-4.70207
2.71906,-0.0404366,-0.764237,0.0872524,-1.78447,0.0163657,0.0336219,1.44114,-1.07386,-4.69845
2.71906,-0.0404366,-0.764237,0.0872524,-1.78447,0.0163657,0.0336219,1.43918,-1.07455,-4.69687
2.71906,-0.0404366,-0.764237,0.0872524,-1.78447,0.0163657,0.0336219,1.43601,-1.07473,-4.69756
2.71906,-0.0404366,-0.764237,0.0872524,-1.78447,0.0163657,0.0336219,1.43368,-1.07252,-4.69618
2.71905,-0.0404494,-0.764201,0.0872588,-1.78447,0.0163774,0.0336197,1.43354,-1.07053,-4.69623
2.71905,-0.0404494,-0.764201,0.0872588,-1.78447,0.0163774,0.0336197,1.43154,-1.07078,-4.6947
2.71905,-0.0404494,-0.764201,0.0872588,-1.78447,0.0163774,0.0336197,1.44072,-1.06962,-4.69841
2.71905,-0.0404494,-0.764201,0.0872588,-1.78447,0.0163774,0.0336197,1.44081,-1.07086,-4.69827
2.71905,-0.0404494,-0.764201,0.0872588,-1.78447,0.0163774,0.0336197,1.45205,-1.0685,-4.69762
2.71905,-0.0404494,-0.764201,0.0872588,-1.78447,0.0163774,0.0336197,1.4473,-1.0726,-4.69652
2.71905,-0.0404494,-0.764201,0.0872588,-1.78447,0.0163774,0.0336197,1.44316,-1.07309,-4.69967
2.71905,-0.0404494,-0.764201,0.0872588,-1.78447,0.0163774,0.0336197,1.44113,-1.07332,-4.69813
2.71905,-0.0404494,-0.764201,0.0872588,-1.78447,0.0163774,0.0336197,1.44006,-1.07346,-4.70048
2.71905,-0.0404494,-0.764201,0.0872588,-1.78447,0.0163774,0.0336197,1.43769,-1.07119,-4.699
2.71905,-0.0404494,-0.764201,0.0872588,-1.78447,0.0163774,0.0336197,1.43746,-1.06798,-4.69923
2.71905,-0.0404494,-0.764201,0.0872588,-1.78447,0.0163774,0.0336197,1.43765,-1.06996,-4.69917
2.71905,-0.0404494,-0.764201,0.0872588,-1.78447,0.0163774,0.0336197,1.43765,-1.07005,-4.69923
2.71905,-0.0404494,-0.764201,0.0872588,-1.78447,0.0163774,0.0336197,1.42976,-1.07338,-4.69921
2.71905,-0.0404494,-0.764201,0.0872588,-1.78447,0.0163774,0.0336197,1.4286,-1.07246,-4.70165
2.71905,-0.0404494,-0.764201,0.0872588,-1.78447,0.0163774,0.0336197,1.43064,-1.07224,-4.70319
2.71905,-0.0404494,-0.764201,0.0872588,-1.78447,0.0163774,0.0336197,1.43984,-1.07017,-4.70106
2.71905,-0.0404494,-0.764201,0.0872588,-1.78447,0.0163774,0.0336197,1.44287,-1.06977,-4.70019
2.71905,-0.0404494,-0.764201,0.0872588,-1.78447,0.0163774,0.0336197,1.44076,-1.06992,-4.69861
2.71906,-0.0404558,-0.764218,0.0872588,-1.78447,0.0163795,0.0336197,1.43884,-1.07203,-4.69697
2.71906,-0.0404558,-0.764218,0.0872588,-1.78447,0.0163795,0.0336197,1.43902,-1.07356,-4.69666
2.71906,-0.0404558,-0.764218,0.0872588,-1.78447,0.0163795,0.0336197,1.43566,-1.07162,-4.69769
2.71906,-0.0404558,-0.764218,0.0872588,-1.78447,0.0163795,0.0336197,1.43667,-1.07142,-4.69528
2.71906,-0.0404558,-0.764218,0.0872588,-1.78447,0.0163795,0.0336197,1.43458,-1.07172,-4.69375
2.71906,-0.0404558,-0.764218,0.0872588,-1.78447,0.0163795,0.0336197,1.43247,-1.07076,-4.6924
2.71906,-0.0404558,-0.764218,0.0872588,-1.78447,0.0163795,0.0336197,1.42567,-1.07415,-4.69016
2.71906,-0.0404558,-0.764218,0.0872588,-1.78447,0.0163795,0.0336197,1.42467,-1.07422,-4.69248
2.71906,-0.0404558,-0.764218,0.0872588,-1.78447,0.0163795,0.0336197,1.42372,-1.07541,-4.69457
2.71906,-0.0404558,-0.764218,0.0872588,-1.78447,0.0163795,0.0336197,1.436,-1.07392,-4.69743
2.71906,-0.0404558,-0.764218,0.0872588,-1.78447,0.0163795,0.0336197,1.43773,-1.07064,-4.69928
2.71906,-0.0404558,-0.764218,0.0872588,-1.78447,0.0163795,0.0336197,1.4385,-1.0681,-4.69709
2.71906,-0.0404558,-0.764218,0.0872588,-1.78447,0.0163795,0.0336197,1.43871,-1.07015,-4.69712
2.71906,-0.0404558,-0.764218,0.0872588,-1.78447,0.0163795,0.0336197,1.43668,-1.07047,-4.69563
2.71906,-0.0404558,-0.764218,0.0872588,-1.78447,0.0163795,0.0336197,1.42946,-1.0711,-4.69326
2.71906,-0.0404558,-0.764218,0.0872588,-1.78447,0.0163795,0.0336197,1.43355,-1.07064,-4.69625
2.71906,-0.0404558,-0.764218,0.0872588,-1.78447,0.0163795,0.0336197,1.42351,-1.07379,-4.69478
2.71906,-0.0404558,-0.764218,0.0872588,-1.78447,0.0163795,0.0336197,1.42745,-1.07143,-4.69794
2.71906,-0.0404558,-0.764218,0.0872588,-1.78447,0.0163795,0.0336197,1.42419,-1.06981,-4.69883
2.71906,-0.0404558,-0.764218,0.0872588,-1.78447,0.0163795,0.0336197,1.42625,-1.06966,-4.70045
2.71906,-0.0404536,-0.764228,0.0872567,-1.78447,0.0163795,0.0336347,1.4327,-1.07148,-4.69881
2.71906,-0.0404536,-0.764228,0.0872567,-1.78447,0.0163795,0.0336347,1.436,-1.07424,-4.6977
2.71906,-0.0404536,-0.764228,0.0872567,-1.78447,0.0163795,0.0336347,1.43876,-1.07127,-4.69685
2.71906,-0.0404536,-0.764228,0.0872567,-1.78447,0.0163795,0.0336347,1.43877,-1.07107,-4.69669
2.71906,-0.0404536,-0.764228,0.0872567,-1.78447,0.0163795,0.0336347,1.43769,-1.07017,-4.69935
2.71906,-0.0404536,-0.764228,0.0872567,-1.78447,0.0163795,0.0336347,1.44115,-1.07334,-4.69815
2.71906,-0.0404536,-0.764228,0.0872567,-1.78447,0.0163795,0.0336347,1.44215,-1.07321,-4.70199
2.71906,-0.0404536,-0.764228,0.0872567,-1.78447,0.0163795,0.0336347,1.44186,-1.07013,-4.70232
2.71906,-0.0404536,-0.764228,0.0872567,-1.78447,0.0163795,0.0336347,1.43773,-1.07137,-4.69918
2.71906,-0.0404536,-0.764228,0.0872567,-1.78447,0.0163795,0.0336347,1.43774,-1.07145,-4.69923
2.71906,-0.0404536,-0.764228,0.0872567,-1.78447,0.0163795,0.0336347,1.42538,-1.07174,-4.69652
2.71906,-0.0404536,-0.764228,0.0872567,-1.78447,0.0163795,0.0336347,1.42554,-1.07377,-4.69652
2.71906,-0.0404536,-0.764228,0.0872567,-1.78447,0.0163795,0.0336347,1.43263,-1.07095,-4.6926
2.71906,-0.0404536,-0.764228,0.0872567,-1.78447,0.0163795,0.0336347,1.4388,-1.07023,-4.69711
2.71906,-0.0404536,-0.764228,0.0872567,-1.78447,0.0163795,0.0336347,1.43964,-1.06791,-4.70085
2.71906,-0.0404536,-0.764228,0.0872567,-1.78447,0.0163795,0.0336347,1.43557,-1.06855,-4.70413
2.71906,-0.0404536,-0.764228,0.0872567,-1.78447,0.0163795,0.0336347,1.43266,-1.07087,-4.70488
2.71906,-0.0404536,-0.764228,0.0872567,-1.78447,0.0163795,0.0336347,1.43468,-1.07075,-4.70652
2.71906,-0.0404536,-0.764228,0.0872567,-1.78447,0.0163795,0.0336347,1.4408,-1.06996,-4.70485
2.71906,-0.0404536,-0.764228,0.0872567,-1.78447,0.0163795,0.0336347,1.43863,-1.06934,-4.70314
2.71906,-0.0404536,-0.764228,0.0872567,-1.78447,0.0163795,0.0336347,1.44171,-1.06899,-4.7023
2.71906,-0.0404536,-0.764211,0.0872567,-1.78446,0.0163657,0.0336229,1.43367,-1.07184,-4.70225
2.71906,-0.0404536,-0.764211,0.0872567,-1.78446,0.0163657,0.0336229,1.43262,-1.07121,-4.70473
2.71906,-0.0404536,-0.764211,0.0872567,-1.78446,0.0163657,0.0336229,1.43672,-1.07074,-4.70163
2.71906,-0.0404536,-0.764211,0.0872567,-1.78446,0.0163657,0.0336229,1.438,-1.07396,-4.69916
2.71906,-0.0404536,-0.764211,0.0872567,-1.78446,0.0163657,0.0336229,1.43492,-1.07312,-4.69399
2.71906,-0.0404536,-0.764211,0.0872567,-1.78446,0.0163657,0.0336229,1.43142,-1.06907,-4.69496
2.71906,-0.0404536,-0.764211,0.0872567,-1.78446,0.0163657,0.0336229,1.43565,-1.07039,-4.69781
2.71906,-0.0404536,-0.764211,0.0872567,-1.78446,0.0163657,0.0336229,1.43577,-1.07092,-4.69782
2.71906,-0.0404536,-0.764211,0.0872567,-1.78446,0.0163657,0.0336229,1.4378,-1.0707,-4.69935
2.71906,-0.0404536,-0.764211,0.0872567,-1.78446,0.0163657,0.0336229,1.44089,-1.07035,-4.69854
2.71906,-0.0404536,-0.764211,0.0872567,-1.78446,0.0163657,0.0336229,1.43577,-1.07104,-4.6979
2.71906,-0.0404536,-0.764211,0.0872567,-1.78446,0.0163657,0.0336229,1.43901,-1.07257,-4.69696
2.71906,-0.0404536,-0.764211,0.0872567,-1.78446,0.0163657,0.0336229,1.44416,-1.07185,-4.69757
2.71906,-0.0404536,-0.764211,0.0872567,-1.78446,0.0163657,0.0336229,1.44086,-1.07091,-4.69826
2.71906,-0.0404536,-0.764211,0.0872567,-1.78446,0.0163657,0.0336229,1.44006,-1.07233,-4.7007
2.71906,-0.0404536,-0.764211,0.0872567,-1.78446,0.0163657,0.0336229,1.44204,-1.07202,-4.70215
2.71906,-0.0404536,-0.764211,0.0872567,-1.78446,0.0163657,0.0336229,1.43977,-1.07029,-4.7007
2.71906,-0.0404536,-0.764211,0.0872567,-1.78446,0.0163657,0.0336229,1.4379,-1.0724,-4.69904
2.71906,-0.0404536,-0.764211,0.0872567,-1.78446,0.0163657,0.0336229,1.43806,-1.07428,-4.69894
2.71906,-0.0404536,-0.764211,0.0872567,-1.78446,0.0163657,0.0336229,1.43797,-1.07349,-4.69883
2.71907,-0.0404558,-0.764194,0.0872588,-1.78446,0.0163742,0.0336229,1.43872,-1.07093,-4.69664
2.71907,-0.0404558,-0.764194,0.0872588,-1.78446,0.0163742,0.0336229,1.44202,-1.072,-4.69603
2.71907,-0.0404558,-0.764194,0.0872588,-1.78446,0.0163742,0.0336229,1.43879,-1.0704,-4.69688
2.71907,-0.0404558,-0.764194,0.0872588,-1.78446,0.0163742,0.0336229,1.44085,-1.07016,-4.6984
2.71907,-0.0404558,-0.764194,0.0872588,-1.78446,0.0163742,0.0336229,1.44107,-1.07219,-4.69838
2.71907,-0.0404558,-0.764194,0.0872588,-1.78446,0.0163742,0.0336229,1.43803,-1.07264,-4.69923
2.71907,-0.0404558,-0.764194,0.0872588,-1.78446,0.0163742,0.0336229,1.43188,-1.07335,-4.70086
2.71907,-0.0404558,-0.764194,0.0872588,-1.78446,0.0163742,0.0336229,1.43408,-1.07509,-4.70234
2.71907,-0.0404558,-0.764194,0.0872588,-1.78446,0.0163742,0.0336229,1.43835,-1.07662,-4.69916
2.71907,-0.0404558,-0.764194,0.0872588,-1.78446,0.0163742,0.0336229,1.4383,-1.07665,-4.69918
2.71907,-0.0404558,-0.764194,0.0872588,-1.78446,0.0163742,0.0336229,1.43916,-1.07454,-4.69691
2.71907,-0.0404558,-0.764194,0.0872588,-1.78446,0.0163742,0.0336229,1.43889,-1.07221,-4.69709
2.71907,-0.0404558,-0.764194,0.0872588,-1.78446,0.0163742,0.0336229,1.42953,-1.07128,-4.69338
2.71907,-0.0404558,-0.764194,0.0872588,-1.78446,0.0163742,0.0336229,1.43388,-1.07314,-4.69623
2.71907,-0.0404558,-0.764194,0.0872588,-1.78446,0.0163742,0.0336229,1.43386,-1.07306,-4.69614
2.71907,-0.0404558,-0.764194,0.0872588,-1.78446,0.0163742,0.0336229,1.42767,-1.07377,-4.69777
2.71907,-0.0404558,-0.764194,0.0872588,-1.78446,0.0163742,0.0336229,1.42456,-1.07414,-4.69861
2.71907,-0.0404558,-0.764194,0.0872588,-1.78446,0.0163742,0.0336229,1.43054,-1.0715,-4.69708
2.71907,-0.0404558,-0.764194,0.0872588,-1.78446,0.0163742,0.0336229,1.43262,-1.07125,-4.69242
2.71907,-0.0404558,-0.764194,0.0872588,-1.78446,0.0163742,0.0336229,1.43061,-1.07147,-4.69087
2.71906,-0.0404408,-0.764231,0.0872588,-1.78447,0.0163848,0.0336208,1.43386,-1.07308,-4.69614
2.71906,-0.0404408,-0.764231,0.0872588,-1.78447,0.0163848,0.0336208,1.42746,-1.07109,-4.69778
2.71906,-0.0404408,-0.764231,0.0872588,-1.78447,0.0163848,0.0336208,1.42982,-1.07473,-4.69912
2.71906,-0.0404408,-0.764231,0.0872588,-1.78447,0.0163848,0.0336208,1.43181,-1.07327,-4.70082
2.71906,-0.0404408,-0.764231,0.0872588,-1.78447,0.0163848,0.0336208,1.43808,-1.07377,-4.69901
2.71906,-0.0404408,-0.764231,0.0872588,-1.78447,0.0163848,0.0336208,1.42877,-1.07369,-4.7017
2.71906,-0.0404408,-0.764231,0.0872588,-1.78447,0.0163848,0.0336208,1.42866,-1.07335,-4.70184
2.71906,-0.0404408,-0.764231,0.0872588,-1.78447,0.0163848,0.0336208,1.43493,-1.07448,-4.70006
2.71906,-0.0404408,-0.764231,0.0872588,-1.78447,0.0163848,0.0336208,1.44399,-1.07135,-4.69762
2.71906,-0.0404408,-0.764231,0.0872588,-1.78447,0.0163848,0.0336208,1.44636,-1.07353,-4.69898
2.71906,-0.0404408,-0.764231,0.0872588,-1.78447,0.0163848,0.0336208,1.44826,-1.07149,-4.70067
2.71906,-0.0404408,-0.764231,0.0872588,-1.78447,0.0163848,0.0336208,1.44177,-1.06982,-4.70239
2.71906,-0.0404408,-0.764231,0.0872588,-1.78447,0.0163848,0.0336208,1.42431,-1.07178,-4.69875
2.71906,-0.0404408,-0.764231,0.0872588,-1.78447,0.0163848,0.0336208,1.4226,-1.07432,-4.69702
2.71906,-0.0404408,-0.764231,0.0872588,-1.78447,0.0163848,0.0336208,1.42567,-1.07418,-4.70261
2.71906,-0.0404408,-0.764231,0.0872588,-1.78447,0.0163848,0.0336208,1.43486,-1.07305,-4.70014
2.71906,-0.0404408,-0.764231,0.0872588,-1.78447,0.0163848,0.0336208,1.43587,-1.07296,-4.69781
2.71906,-0.0404408,-0.764231,0.0872588,-1.78447,0.0163848,0.0336208,1.43783,-1.07071,-4.69316
2.71906,-0.0404408,-0.764231,0.0872588,-1.78447,0.0163848,0.0336208,1.43379,-1.07133,-4.69641
2.71906,-0.0404408,-0.764231,0.0872588,-1.78447,0.0163848,0.0336208,1.43597,-1.073,-4.69781
2.71906,-0.0404345,-0.764216,0.0872631,-1.78447,0.0163806,0.0336208,1.43797,-1.07268,-4.69925
2.71906,-0.0404345,-0.764216,0.0872631,-1.78447,0.0163806,0.0336208,1.43588,-1.07274,-4.69757
2.71906,-0.0404345,-0.764216,0.0872631,-1.78447,0.0163806,0.0336208,1.4313,-1.0688,-4.70089
2.71906,-0.0404345,-0.764216,0.0872631,-1.78447,0.0163806,0.0336208,1.42832,-1.0695,-4.70158
2.71906,-0.0404345,-0.764216,0.0872631,-1.78447,0.0163806,0.0336208,1.42818,-1.06876,-4.70153
2.71906,-0.0404345,-0.764216,0.0872631,-1.78447,0.0163806,0.0336208,1.43455,-1.07,-4.69984
2.71906,-0.0404345,-0.764216,0.0872631,-1.78447,0.0163806,0.0336208,1.43767,-1.06973,-4.69906
2.71906,-0.0404345,-0.764216,0.0872631,-1.78447,0.0163806,0.0336208,1.43784,-1.07151,-4.69884
2.71906,-0.0404345,-0.764216,0.0872631,-1.78447,0.0163806,0.0336208,1.43572,-1.07166,-4.70346
2.71906,-0.0404345,-0.764216,0.0872631,-1.78447,0.0163806,0.0336208,1.44174,-1.06937,-4.70215
2.71906,-0.0404345,-0.764216,0.0872631,-1.78447,0.0163806,0.0336208,1.44403,-1.07235,-4.70345
2.71906,-0.0404345,-0.764216,0.0872631,-1.78447,0.0163806,0.0336208,1.44416,-1.07299,-4.70353
2.71906,-0.0404345,-0.764216,0.0872631,-1.78447,0.0163806,0.0336208,1.44208,-1.07208,-4.7022
2.71906,-0.0404345,-0.764216,0.0872631,-1.78447,0.0163806,0.0336208,1.43591,-1.07278,-4.70384
2.71906,-0.0404345,-0.764216,0.0872631,-1.78447,0.0163806,0.0336208,1.43392,-1.07413,-4.70207
2.71906,-0.0404345,-0.764216,0.0872631,-1.78447,0.0163806,0.0336208,1.43377,-1.07256,-4.70238
2.71906,-0.0404345,-0.764216,0.0872631,-1.78447,0.0163806,0.0336208,1.43085,-1.075,-4.70321
2.71906,-0.0404345,-0.764216,0.0872631,-1.78447,0.0163806,0.0336208,1.42885,-1.07626,-4.7014
2.71906,-0.0404345,-0.764216,0.0872631,-1.78447,0.0163806,0.0336208,1.42866,-1.07448,-4.70163
2.71906,-0.0404345,-0.764216,0.0872631,-1.78447,0.0163806,0.0336208,1.42899,-1.07701,-4.69541
2.71905,-0.0404664,-0.764218,0.0872609,-1.78447,0.0163848,0.0336293,1.43201,-1.07658,-4.69452
2.71905,-0.0404664,-0.764218,0.0872609,-1.78447,0.0163848,0.0336293,1.42968,-1.07428,-4.69304
2.71905,-0.0404664,-0.764218,0.0872609,-1.78447,0.0163848,0.0336293,1.42748,-1.07235,-4.69144
2.71905,-0.0404664,-0.764218,0.0872609,-1.78447,0.0163848,0.0336293,1.43369,-1.07181,-4.69617
2.71905,-0.0404664,-0.764218,0.0872609,-1.78447,0.0163848,0.0336293,1.44111,-1.07341,-4.69825
2.71905,-0.0404664,-0.764218,0.0872609,-1.78447,0.0163848,0.0336293,1.44107,-1.07344,-4.69823
2.71905,-0.0404664,-0.764218,0.0872609,-1.78447,0.0163848,0.0336293,1.43476,-1.07217,-4.6937
2.71905,-0.0404664,-0.764218,0.0872609,-1.78447,0.0163848,0.0336293,1.42344,-1.07338,-4.69457
2.71905,-0.0404664,-0.764218,0.0872609,-1.78447,0.0163848,0.0336293,1.42736,-1.07094,-4.69767
2.71905,-0.0404664,-0.764218,0.0872609,-1.78447,0.0163848,0.0336293,1.43353,-1.07023,-4.69604
2.71905,-0.0404664,-0.764218,0.0872609,-1.78447,0.0163848,0.0336293,1.43368,-1.07109,-4.69623
2.71905,-0.0404664,-0.764218,0.0872609,-1.78447,0.0163848,0.0336293,1.43572,-1.07085,-4.69776
2.71905,-0.0404664,-0.764218,0.0872609,-1.78447,0.0163848,0.0336293,1.43698,-1.07259,-4.69526
2.71905,-0.0404664,-0.764218,0.0872609,-1.78447,0.0163848,0.0336293,1.43999,-1.07216,-4.70057
2.71905,-0.0404664,-0.764218,0.0872609,-1.78447,0.0163848,0.0336293,1.44199,-1.07288,-4.70173
2.71905,-0.0404664,-0.764218,0.0872609,-1.78447,0.0163848,0.0336293,1.43948,-1.06776,-4.70076
2.71905,-0.0404664,-0.764218,0.0872609,-1.78447,0.0163848,0.0336293,1.43985,-1.07138,-4.70047
2.71905,-0.0404664,-0.764218,0.0872609,-1.78447,0.0163848,0.0336293,1.44003,-1.07337,-4.7004
2.71905,-0.0404664,-0.764218,0.0872609,-1.78447,0.0163848,0.0336293,1.43575,-1.0723,-4.69771
2.71905,-0.0404664,-0.764218,0.0872609,-1.78447,0.0163848,0.0336293,1.4389,-1.07213,-4.69706
2.71906,-0.0404408,-0.764216,0.0872652,-1.78448,0.016387,0.0336304,1.44537,-1.07383,-4.69529
2.71906,-0.0404408,-0.764216,0.0872652,-1.78448,0.016387,0.0336304,1.44431,-1.07384,-4.69752
2.71906,-0.0404408,-0.764216,0.0872652,-1.78448,0.016387,0.0336304,1.44106,-1.07232,-4.69847
2.71906,-0.0404408,-0.764216,0.0872652,-1.78448,0.016387,0.0336304,1.43924,-1.07449,-4.69688
2.71906,-0.0404408,-0.764216,0.0872652,-1.78448,0.016387,0.0336304,1.44146,-1.07625,-4.69833
2.71906,-0.0404408,-0.764216,0.0872652,-1.78448,0.016387,0.0336304,1.44147,-1.07636,-4.69838
2.71906,-0.0404408,-0.764216,0.0872652,-1.78448,0.016387,0.0336304,1.43771,-1.07026,-4.69936
2.71906,-0.0404408,-0.764216,0.0872652,-1.78448,0.016387,0.0336304,1.43151,-1.07077,-4.70085
2.71906,-0.0404408,-0.764216,0.0872652,-1.78448,0.016387,0.0336304,1.44002,-1.07223,-4.7006
2.71906,-0.0404408,-0.764216,0.0872652,-1.78448,0.016387,0.0336304,1.43406,-1.07501,-4.70222
2.71906,-0.0404408,-0.764216,0.0872652,-1.78448,0.016387,0.0336304,1.43281,-1.07318,-4.70463
2.71906,-0.0404408,-0.764216,0.0872652,-1.78448,0.016387,0.0336304,1.43056,-1.07145,-4.70322
2.71906,-0.0404408,-0.764216,0.0872652,-1.78448,0.016387,0.0336304,1.43641,-1.06833,-4.70176
2.71906,-0.0404408,-0.764216,0.0872652,-1.78448,0.016387,0.0336304,1.43854,-1.06819,-4.69712
2.71906,-0.0404408,-0.764216,0.0872652,-1.78448,0.016387,0.0336304,1.43425,-1.06663,-4.70023
2.71906,-0.0404408,-0.764216,0.0872652,-1.78448,0.016387,0.0336304,1.43734,-1.06623,-4.69943
2.71906,-0.0404408,-0.764216,0.0872652,-1.78448,0.016387,0.0336304,1.43753,-1.0683,-4.69948
2.71906,-0.0404408,-0.764216,0.0872652,-1.78448,0.016387,0.0336304,1.44073,-1.06838,-4.69859
2.71906,-0.0404408,-0.764216,0.0872652,-1.78448,0.016387,0.0336304,1.44074,-1.06836,-4.69858
2.71906,-0.0404408,-0.764216,0.0872652,-1.78448,0.016387,0.0336304,1.43769,-1.06974,-4.69907
2.71907,-0.0404494,-0.764218,0.0872567,-1.78446,0.0163731,0.0336219,1.43958,-1.06792,-4.70087
2.71907,-0.0404494,-0.764218,0.0872567,-1.78446,0.0163731,0.0336219,1.43181,-1.07325,-4.7008
2.71907,-0.0404494,-0.764218,0.0872567,-1.78446,0.0163731,0.0336219,1.43197,-1.07524,-4.70074
2.71907,-0.0404494,-0.764218,0.0872567,-1.78446,0.0163731,0.0336219,1.42999,-1.07671,-4.69906
2.71907,-0.0404494,-0.764218,0.0872567,-1.78446,0.0163731,0.0336219,1.42665,-1.07389,-4.70008
2.71907,-0.0404494,-0.764218,0.0872567,-1.78446,0.0163731,0.0336219,1.42667,-1.07389,-4.70011
2.71907,-0.0404494,-0.764218,0.0872567,-1.78446,0.0163731,0.0336219,1.43493,-1.07306,-4.70007
2.71907,-0.0404494,-0.764218,0.0872567,-1.78446,0.0163731,0.0336219,1.44092,-1.07027,-4.69845
2.71907,-0.0404494,-0.764218,0.0872567,-1.78446,0.0163731,0.0336219,1.44314,-1.0721,-4.70001
2.71907,-0.0404494,-0.764218,0.0872567,-1.78446,0.0163731,0.0336219,1.44514,-1.07191,-4.70151
2.71907,-0.0404494,-0.764218,0.0872567,-1.78446,0.0163731,0.0336219,1.44122,-1.07435,-4.69839
2.71907,-0.0404494,-0.764218,0.0872567,-1.78446,0.0163731,0.0336219,1.43899,-1.07246,-4.69684
2.71907,-0.0404494,-0.764218,0.0872567,-1.78446,0.0163731,0.0336219,1.42978,-1.07359,-4.69934
2.71907,-0.0404494,-0.764218,0.0872567,-1.78446,0.0163731,0.0336219,1.43181,-1.07336,-4.70091
2.71907,-0.0404494,-0.764218,0.0872567,-1.78446,0.0163731,0.0336219,1.43805,-1.07376,-4.69905
2.71907,-0.0404494,-0.764218,0.0872567,-1.78446,0.0163731,0.0336219,1.43811,-1.07386,-4.69911
2.71907,-0.0404494,-0.764218,0.0872567,-1.78446,0.0163731,0.0336219,1.44328,-1.07327,-4.69981
2.71907,-0.0404494,-0.764218,0.0872567,-1.78446,0.0163731,0.0336219,1.44012,-1.07261,-4.70094
2.71907,-0.0404494,-0.764218,0.0872567,-1.78446,0.0163731,0.0336219,1.44524,-1.07307,-4.70136
2.71907,-0.0404494,-0.764218,0.0872567,-1.78446,0.0163731,0.0336219,1.44195,-1.07148,-4.70223
2.71906,-0.0404643,-0.764222,0.0872588,-1.78447,0.016372,0.0336229,1.44084,-1.071,-4.69834
2.71906,-0.0404643,-0.764222,0.0872588,-1.78447,0.016372,0.0336229,1.43777,-1.07135,-4.69914
2.71906,-0.0404643,-0.764222,0.0872588,-1.78447,0.016372,0.0336229,1.43157,-1.07208,-4.70079
2.71906,-0.0404643,-0.764222,0.0872588,-1.78447,0.016372,0.0336229,1.43577,-1.07208,-4.69761
2.71906,-0.0404643,-0.764222,0.0872588,-1.78447,0.016372,0.0336229,1.43896,-1.07168,-4.69674
2.71906,-0.0404643,-0.764222,0.0872588,-1.78447,0.016372,0.0336229,1.43086,-1.0736,-4.70325
2.71906,-0.0404643,-0.764222,0.0872588,-1.78447,0.016372,0.0336229,1.43186,-1.07343,-4.70093
2.71906,-0.0404643,-0.764222,0.0872588,-1.78447,0.016372,0.0336229,1.4254,-1.07288,-4.70251
2.71906,-0.0404643,-0.764222,0.0872588,-1.78447,0.016372,0.0336229,1.43242,-1.07,-4.69857
2.71906,-0.0404643,-0.764222,0.0872588,-1.78447,0.016372,0.0336229,1.44417,-1.07301,-4.69742
2.71906,-0.0404643,-0.764222,0.0872588,-1.78447,0.016372,0.0336229,1.44746,-1.07471,-4.69654
2.71906,-0.0404643,-0.764222,0.0872588,-1.78447,0.016372,0.0336229,1.43901,-1.07371,-4.69672
2.71906,-0.0404643,-0.764222,0.0872588,-1.78447,0.016372,0.0336229,1.43389,-1.07424,-4.69591
2.71906,-0.0404643,-0.764222,0.0872588,-1.78447,0.016372,0.0336229,1.43354,-1.07055,-4.69621
2.71906,-0.0404643,-0.764222,0.0872588,-1.78447,0.016372,0.0336229,1.43357,-1.07054,-4.69622
2.71906,-0.0404643,-0.764222,0.0872588,-1.78447,0.016372,0.0336229,1.43569,-1.07048,-4.69788
2.71906,-0.0404643,-0.764222,0.0872588,-1.78447,0.016372,0.0336229,1.43686,-1.07249,-4.70176
2.71906,-0.0404643,-0.764222,0.0872588,-1.78447,0.016372,0.0336229,1.43769,-1.07041,-4.69951
2.71906,-0.0404643,-0.764222,0.0872588,-1.78447,0.016372,0.0336229,1.43873,-1.07014,-4.69708
2.71906,-0.0404643,-0.764222,0.0872588,-1.78447,0.016372,0.0336229,1.43714,-1.07478,-4.69536
2.71906,-0.0404323,-0.764213,0.0872609,-1.78447,0.0163806,0.0336208,1.43692,-1.07274,-4.69536
2.71906,-0.0404323,-0.764213,0.0872609,-1.78447,0.0163806,0.0336208,1.43895,-1.07252,-4.6969
2.71906,-0.0404323,-0.764213,0.0872609,-1.78447,0.0163806,0.0336208,1.43953,-1.06799,-4.69473
2.71906,-0.0404323,-0.764213,0.0872609,-1.78447,0.0163806,0.0336208,1.43257,-1.07075,-4.6924
2.71906,-0.0404323,-0.764213,0.0872609,-1.78447,0.0163806,0.0336208,1.42741,-1.07144,-4.69797
2.71906,-0.0404323,-0.764213,0.0872609,-1.78447,0.0163806,0.0336208,1.42644,-1.07261,-4.69998
2.71906,-0.0404323,-0.764213,0.0872609,-1.78447,0.0163806,0.0336208,1.42842,-1.07136,-4.7018
2.71906,-0.0404323,-0.764213,0.0872609,-1.78447,0.0163806,0.0336208,1.42328,-1.07178,-4.70093
2.71906,-0.0404323,-0.764213,0.0872609,-1.78447,0.0163806,0.0336208,1.42509,-1.06949,-4.70246
2.71906,-0.0404323,-0.764213,0.0872609,-1.78447,0.0163806,0.0336208,1.42505,-1.06929,-4.70233
2.71906,-0.0404323,-0.764213,0.0872609,-1.78447,0.0163806,0.0336208,1.43332,-1.06846,-4.70228
2.71906,-0.0404323,-0.764213,0.0872609,-1.78447,0.0163806,0.0336208,1.43373,-1.07278,-4.70203
2.71906,-0.0404323,-0.764213,0.0872609,-1.78447,0.0163806,0.0336208,1.43371,-1.07268,-4.70197
2.71906,-0.0404323,-0.764213,0.0872609,-1.78447,0.0163806,0.0336208,1.43374,-1.07275,-4.70205
2.71906,-0.0404323,-0.764213,0.0872609,-1.78447,0.0163806,0.0336208,1.43711,-1.07453,-4.7013
2.71906,-0.0404323,-0.764213,0.0872609,-1.78447,0.0163806,0.0336208,1.43919,-1.07447,-4.70296
2.71906,-0.0404323,-0.764213,0.0872609,-1.78447,0.0163806,0.0336208,1.44202,-1.07202,-4.70216
2.71906,-0.0404323,-0.764213,0.0872609,-1.78447,0.0163806,0.0336208,1.4387,-1.07111,-4.70286
2.71906,-0.0404323,-0.764213,0.0872609,-1.78447,0.0163806,0.0336208,1.43199,-1.07641,-4.70054
2.71906,-0.0404323,-0.764213,0.0872609,-1.78447,0.0163806,0.0336208,1.4349,-1.073,-4.70001
2.71907,-0.0404323,-0.764237,0.0872631,-1.78447,0.016388,0.0336229,1.43694,-1.07276,-4.70155
2.71907,-0.0404323,-0.764237,0.0872631,-1.78447,0.016388,0.0336229,1.44079,-1.06981,-4.69855
2.71907,-0.0404323,-0.764237,0.0872631,-1.78447,0.016388,0.0336229,1.4459,-1.06932,-4.69935
2.71907,-0.0404323,-0.764237,0.0872631,-1.78447,0.016388,0.0336229,1.44687,-1.0683,-4.69678
2.71907,-0.0404323,-0.764237,0.0872631,-1.78447,0.016388,0.0336229,1.44476,-1.06855,-4.70143
2.71907,-0.0404323,-0.764237,0.0872631,-1.78447,0.016388,0.0336229,1.43661,-1.06957,-4.70157
2.71907,-0.0404323,-0.764237,0.0872631,-1.78447,0.016388,0.0336229,1.43572,-1.07159,-4.7038
2.71907,-0.0404323,-0.764237,0.0872631,-1.78447,0.016388,0.0336229,1.44185,-1.06987,-4.70247
2.71907,-0.0404323,-0.764237,0.0872631,-1.78447,0.016388,0.0336229,1.43364,-1.0708,-4.70257
2.71907,-0.0404323,-0.764237,0.0872631,-1.78447,0.016388,0.0336229,1.43054,-1.07115,-4.70339
2.71907,-0.0404323,-0.764237,0.0872631,-1.78447,0.016388,0.0336229,1.42769,-1.07399,-4.70412
2.71907,-0.0404323,-0.764237,0.0872631,-1.78447,0.016388,0.0336229,1.42542,-1.07304,-4.70258
2.71907,-0.0404323,-0.764237,0.0872631,-1.78447,0.016388,0.0336229,1.42777,-1.07514,-4.69771
2.71907,-0.0404323,-0.764237,0.0872631,-1.78447,0.016388,0.0336229,1.42978,-1.07378,-4.69949
2.71907,-0.0404323,-0.764237,0.0872631,-1.78447,0.016388,0.0336229,1.4357,-1.0706,-4.69795
2.71907,-0.0404323,-0.764237,0.0872631,-1.78447,0.016388,0.0336229,1.43384,-1.07286,-4.69645
2.71907,-0.0404323,-0.764237,0.0872631,-1.78447,0.016388,0.0336229,1.43372,-1.07209,-4.69635
2.71907,-0.0404323,-0.764237,0.0872631,-1.78447,0.016388,0.0336229,1.43413,-1.07641,-4.69608
2.71907,-0.0404323,-0.764237,0.0872631,-1.78447,0.016388,0.0336229,1.42368,-1.07551,-4.69466
2.71907,-0.0404323,-0.764237,0.0872631,-1.78447,0.016388,0.0336229,1.42388,-1.07749,-4.69461
2.71906,-0.0404622,-0.764218,0.0872609,-1.78446,0.0163912,0.0336336,1.434,-1.07444,-4.69613
2.71906,-0.0404622,-0.764218,0.0872609,-1.78446,0.0163912,0.0336336,1.43393,-1.07325,-4.69629
2.71906,-0.0404622,-0.764218,0.0872609,-1.78446,0.0163912,0.0336336,1.4358,-1.07105,-4.69787
2.71906,-0.0404622,-0.764218,0.0872609,-1.78446,0.0163912,0.0336336,1.43667,-1.07044,-4.70174
2.71906,-0.0404622,-0.764218,0.0872609,-1.78446,0.0163912,0.0336336,1.43956,-1.0681,-4.70098
2.71906,-0.0404622,-0.764218,0.0872609,-1.78446,0.0163912,0.0336336,1.43442,-1.06869,-4.70026
2.71906,-0.0404622,-0.764218,0.0872609,-1.78446,0.0163912,0.0336336,1.4367,-1.07068,-4.7015
2.71906,-0.0404622,-0.764218,0.0872609,-1.78446,0.0163912,0.0336336,1.43131,-1.0688,-4.70092
2.71906,-0.0404622,-0.764218,0.0872609,-1.78446,0.0163912,0.0336336,1.43148,-1.07036,-4.70065
2.71906,-0.0404622,-0.764218,0.0872609,-1.78446,0.0163912,0.0336336,1.438,-1.07267,-4.6993
2.71906,-0.0404622,-0.764218,0.0872609,-1.78446,0.0163912,0.0336336,1.44113,-1.07241,-4.69856
2.71906,-0.0404622,-0.764218,0.0872609,-1.78446,0.0163912,0.0336336,1.44608,-1.06974,-4.69925
2.71906,-0.0404622,-0.764218,0.0872609,-1.78446,0.0163912,0.0336336,1.45327,-1.07006,-4.70125
2.71906,-0.0404622,-0.764218,0.0872609,-1.78446,0.0163912,0.0336336,1.4544,-1.0707,-4.69901
2.71906,-0.0404622,-0.764218,0.0872609,-1.78446,0.0163912,0.0336336,1.44937,-1.07248,-4.69814
2.71906,-0.0404622,-0.764218,0.0872609,-1.78446,0.0163912,0.0336336,1.44912,-1.07015,-4.69833
2.71906,-0.0404622,-0.764218,0.0872609,-1.78446,0.0163912,0.0336336,1.44808,-1.07031,-4.70066
2.71906,-0.0404622,-0.764218,0.0872609,-1.78446,0.0163912,0.0336336,1.44503,-1.07076,-4.70151
2.71906,-0.0404622,-0.764218,0.0872609,-1.78446,0.0163912,0.0336336,1.44214,-1.07232,-4.70232
2.71906,-0.0404622,-0.764218,0.0872609,-1.78446,0.0163912,0.0336336,1.43391,-1.07323,-4.70244
2.71906,-0.0404302,-0.764218,0.0872567,-1.78446,0.016387,0.0336357,1.42984,-1.0738,-4.69949
2.71906,-0.0404302,-0.764218,0.0872567,-1.78446,0.016387,0.0336357,1.43602,-1.07307,-4.69787
2.71906,-0.0404302,-0.764218,0.0872567,-1.78446,0.016387,0.0336357,1.43504,-1.07316,-4.70017
2.71906,-0.0404302,-0.764218,0.0872567,-1.78446,0.016387,0.0336357,1.43088,-1.07355,-4.70327
2.71906,-0.0404302,-0.764218,0.0872567,-1.78446,0.016387,0.0336357,1.43088,-1.07368,-4.70334
2.71906,-0.0404302,-0.764218,0.0872567,-1.78446,0.016387,0.0336357,1.43702,-1.073,-4.70172
2.71906,-0.0404302,-0.764218,0.0872567,-1.78446,0.016387,0.0336357,1.43601,-1.07305,-4.70394
2.71906,-0.0404302,-0.764218,0.0872567,-1.78446,0.016387,0.0336357,1.43155,-1.07097,-4.70714
2.71906,-0.0404302,-0.764218,0.0872567,-1.78446,0.016387,0.0336357,1.42777,-1.0739,-4.70407
2.71906,-0.0404302,-0.764218,0.0872567,-1.78446,0.016387,0.0336357,1.42879,-1.0738,-4.70177
2.71906,-0.0404302,-0.764218,0.0872567,-1.78446,0.016387,0.0336357,1.43499,-1.07416,-4.69983
2.71906,-0.0404302,-0.764218,0.0872567,-1.78446,0.016387,0.0336357,1.43567,-1.07053,-4.70404
2.71906,-0.0404302,-0.764218,0.0872567,-1.78446,0.016387,0.0336357,1.43907,-1.07258,-4.70311
2.71906,-0.0404302,-0.764218,0.0872567,-1.78446,0.016387,0.0336357,1.44108,-1.07236,-4.70462
2.71906,-0.0404302,-0.764218,0.0872567,-1.78446,0.016387,0.0336357,1.44099,-1.0722,-4.70452
2.71906,-0.0404302,-0.764218,0.0872567,-1.78446,0.016387,0.0336357,1.44507,-1.07159,-4.70131
2.71906,-0.0404302,-0.764218,0.0872567,-1.78446,0.016387,0.0336357,1.44212,-1.07317,-4.70192
2.71906,-0.0404302,-0.764218,0.0872567,-1.78446,0.016387,0.0336357,1.43906,-1.0736,-4.70281
2.71906,-0.0404302,-0.764218,0.0872567,-1.78446,0.016387,0.0336357,1.43925,-1.07557,-4.70274
2.71906,-0.0404302,-0.764218,0.0872567,-1.78446,0.016387,0.0336357,1.4326,-1.0718,-4.70447
2.71908,-0.0404643,-0.764245,0.0872631,-1.78446,0.016355,0.0336165,1.43464,-1.07158,-4.706
2.71908,-0.0404643,-0.764245,0.0872631,-1.78446,0.016355,0.0336165,1.44081,-1.07076,-4.70429
2.71908,-0.0404643,-0.764245,0.0872631,-1.78446,0.016355,0.0336165,1.43669,-1.07132,-4.70753
2.71908,-0.0404643,-0.764245,0.0872631,-1.78446,0.016355,0.0336165,1.44216,-1.07331,-4.7021
2.71908,-0.0404643,-0.764245,0.0872631,-1.78446,0.016355,0.0336165,1.44221,-1.07355,-4.70224
2.71908,-0.0404643,-0.764245,0.0872631,-1.78446,0.016355,0.0336165,1.44216,-1.07233,-4.70238
2.71908,-0.0404643,-0.764245,0.0872631,-1.78446,0.016355,0.0336165,1.43905,-1.07268,-4.70319
2.71908,-0.0404643,-0.764245,0.0872631,-1.78446,0.016355,0.0336165,1.43701,-1.07299,-4.70174
2.71908,-0.0404643,-0.764245,0.0872631,-1.78446,0.016355,0.0336165,1.4301,-1.07697,-4.69929
2.71908,-0.0404643,-0.764245,0.0872631,-1.78446,0.016355,0.0336165,1.43681,-1.07159,-4.70155
2.71908,-0.0404643,-0.764245,0.0872631,-1.78446,0.016355,0.0336165,1.44186,-1.0709,-4.7022
2.71908,-0.0404643,-0.764245,0.0872631,-1.78446,0.016355,0.0336165,1.43698,-1.07397,-4.70142
2.71908,-0.0404643,-0.764245,0.0872631,-1.78446,0.016355,0.0336165,1.43803,-1.07384,-4.69905
2.71908,-0.0404643,-0.764245,0.0872631,-1.78446,0.016355,0.0336165,1.43508,-1.07514,-4.70013
2.71908,-0.0404643,-0.764245,0.0872631,-1.78446,0.016355,0.0336165,1.44005,-1.07244,-4.69463
2.71908,-0.0404643,-0.764245,0.0872631,-1.78446,0.016355,0.0336165,1.44011,-1.07355,-4.69439
2.71908,-0.0404643,-0.764245,0.0872631,-1.78446,0.016355,0.0336165,1.43878,-1.07125,-4.69687
2.71908,-0.0404643,-0.764245,0.0872631,-1.78446,0.016355,0.0336165,1.43987,-1.07122,-4.69457
2.71908,-0.0404643,-0.764245,0.0872631,-1.78446,0.016355,0.0336165,1.43908,-1.07368,-4.69673
2.71908,-0.0404643,-0.764245,0.0872631,-1.78446,0.016355,0.0336165,1.44115,-1.07339,-4.69813
2.71907,-0.0404536,-0.764248,0.0872631,-1.78446,0.0163859,0.0336261,1.43707,-1.07393,-4.70135
2.71907,-0.0404536,-0.764248,0.0872631,-1.78446,0.0163859,0.0336261,1.43298,-1.07448,-4.70457
2.71907,-0.0404536,-0.764248,0.0872631,-1.78446,0.0163859,0.0336261,1.43298,-1.07469,-4.70471
2.71907,-0.0404536,-0.764248,0.0872631,-1.78446,0.0163859,0.0336261,1.42881,-1.07407,-4.70193
2.71907,-0.0404536,-0.764248,0.0872631,-1.78446,0.0163859,0.0336261,1.43521,-1.07532,-4.70021
2.71907,-0.0404536,-0.764248,0.0872631,-1.78446,0.0163859,0.0336261,1.43726,-1.07509,-4.70175
2.71907,-0.0404536,-0.764248,0.0872631,-1.78446,0.0163859,0.0336261,1.44317,-1.07217,-4.70006
2.71907,-0.0404536,-0.764248,0.0872631,-1.78446,0.0163859,0.0336261,1.44121,-1.07422,-4.69835
2.71907,-0.0404536,-0.764248,0.0872631,-1.78446,0.0163859,0.0336261,1.43971,-1.06997,-4.70086
2.71907,-0.0404536,-0.764248,0.0872631,-1.78446,0.0163859,0.0336261,1.43498,-1.07429,-4.69992
2.71907,-0.0404536,-0.764248,0.0872631,-1.78446,0.0163859,0.0336261,1.43579,-1.07112,-4.69794
2.71907,-0.0404536,-0.764248,0.0872631,-1.78446,0.0163859,0.0336261,1.42362,-1.07454,-4.69498
2.71907,-0.0404536,-0.764248,0.0872631,-1.78446,0.0163859,0.0336261,1.42775,-1.07386,-4.69169
2.71907,-0.0404536,-0.764248,0.0872631,-1.78446,0.0163859,0.0336261,1.43208,-1.07554,-4.69481
2.71907,-0.0404536,-0.764248,0.0872631,-1.78446,0.0163859,0.0336261,1.43084,-1.0737,-4.6972
2.71907,-0.0404536,-0.764248,0.0872631,-1.78446,0.0163859,0.0336261,1.43186,-1.0745,-4.69451
2.71907,-0.0404536,-0.764248,0.0872631,-1.78446,0.0163859,0.0336261,1.42776,-1.07498,-4.69148
2.71907,-0.0404536,-0.764248,0.0872631,-1.78446,0.0163859,0.0336261,1.42749,-1.07257,-4.69161
2.71907,-0.0404536,-0.764248,0.0872631,-1.78446,0.0163859,0.0336261,1.43378,-1.07244,-4.69614
2.71907,-0.0404536,-0.764248,0.0872631,-1.78446,0.0163859,0.0336261,1.43085,-1.07466,-4.69682
2.71906,-0.0404494,-0.764222,0.0872652,-1.78447,0.0163816,0.0336229,1.43405,-1.07501,-4.69609
2.71906,-0.0404494,-0.764222,0.0872652,-1.78447,0.0163816,0.0336229,1.42778,-1.07494,-4.69762
2.71906,-0.0404494,-0.764222,0.0872652,-1.78447,0.0163816,0.0336229,1.42985,-1.07468,-4.69915
2.71906,-0.0404494,-0.764222,0.0872652,-1.78447,0.0163816,0.0336229,1.43818,-1.07566,-4.69894
2.71906,-0.0404494,-0.764222,0.0872652,-1.78447,0.0163816,0.0336229,1.43602,-1.07413,-4.69761
2.71906,-0.0404494,-0.764222,0.0872652,-1.78447,0.0163816,0.0336229,1.44006,-1.07363,-4.70056
2.71906,-0.0404494,-0.764222,0.0872652,-1.78447,0.0163816,0.0336229,1.43788,-1.07233,-4.69902
2.71906,-0.0404494,-0.764222,0.0872652,-1.78447,0.0163816,0.0336229,1.4458,-1.06898,-4.69904
2.71906,-0.0404494,-0.764222,0.0872652,-1.78447,0.0163816,0.0336229,1.44064,-1.06948,-4.6983
2.71906,-0.0404494,-0.764222,0.0872652,-1.78447,0.0163816,0.0336229,1.44625,-1.07341,-4.69887
2.71906,-0.0404494,-0.764222,0.0872652,-1.78447,0.0163816,0.0336229,1.44532,-1.07355,-4.69505
2.71906,-0.0404494,-0.764222,0.0872652,-1.78447,0.0163816,0.0336229,1.44434,-1.07383,-4.69751
2.71906,-0.0404494,-0.764222,0.0872652,-1.78447,0.0163816,0.0336229,1.44074,-1.06978,-4.69853
2.71906,-0.0404494,-0.764222,0.0872652,-1.78447,0.0163816,0.0336229,1.4298,-1.07484,-4.69926
2.71906,-0.0404494,-0.764222,0.0872652,-1.78447,0.0163816,0.0336229,1.43886,-1.07182,-4.69689
2.71906,-0.0404494,-0.764222,0.0872652,-1.78447,0.0163816,0.0336229,1.43494,-1.07417,-4.69368
2.71906,-0.0404494,-0.764222,0.0872652,-1.78447,0.0163816,0.0336229,1.4298,-1.07352,-4.6931
2.71906,-0.0404494,-0.764222,0.0872652,-1.78447,0.0163816,0.0336229,1.43565,-1.0704,-4.69782
2.71906,-0.0404494,-0.764222,0.0872652,-1.78447,0.0163816,0.0336229,1.43981,-1.07107,-4.7006
2.71906,-0.0404494,-0.764222,0.0872652,-1.78447,0.0163816,0.0336229,1.43869,-1.07115,-4.70291
2.71906,-0.0404664,-0.764245,0.0872545,-1.78447,0.0163827,0.0336155,1.43985,-1.07137,-4.70044
2.71906,-0.0404664,-0.764245,0.0872545,-1.78447,0.0163827,0.0336155,1.4431,-1.072,-4.69993
2.71906,-0.0404664,-0.764245,0.0872545,-1.78447,0.0163827,0.0336155,1.4431,-1.0722,-4.70009
2.71906,-0.0404664,-0.764245,0.0872545,-1.78447,0.0163827,0.0336155,1.43895,-1.07259,-4.69698
2.71906,-0.0404664,-0.764245,0.0872545,-1.78447,0.0163827,0.0336155,1.43401,-1.07518,-4.69619
2.71906,-0.0404664,-0.764245,0.0872545,-1.78447,0.0163827,0.0336155,1.43,-1.07556,-4.69313
2.71906,-0.0404664,-0.764245,0.0872545,-1.78447,0.0163827,0.0336155,1.43618,-1.07484,-4.69765
2.71906,-0.0404664,-0.764245,0.0872545,-1.78447,0.0163827,0.0336155,1.43188,-1.07346,-4.70093
2.71906,-0.0404664,-0.764245,0.0872545,-1.78447,0.0163827,0.0336155,1.43076,-1.07346,-4.70314
2.71906,-0.0404664,-0.764245,0.0872545,-1.78447,0.0163827,0.0336155,1.42776,-1.07492,-4.70371
2.71906,-0.0404664,-0.764245,0.0872545,-1.78447,0.0163827,0.0336155,1.42779,-1.07501,-4.70378
2.71906,-0.0404664,-0.764245,0.0872545,-1.78447,0.0163827,0.0336155,1.42985,-1.07477,-4.70531
2.71906,-0.0404664,-0.764245,0.0872545,-1.78447,0.0163827,0.0336155,1.43806,-1.07393,-4.70529
2.71906,-0.0404664,-0.764245,0.0872545,-1.78447,0.0163827,0.0336155,1.43781,-1.07188,-4.70534
2.71906,-0.0404664,-0.764245,0.0872545,-1.78447,0.0163827,0.0336155,1.44603,-1.07082,-4.699
2.71906,-0.0404664,-0.764245,0.0872545,-1.78447,0.0163827,0.0336155,1.44894,-1.06849,-4.69825
2.71906,-0.0404664,-0.764245,0.0872545,-1.78447,0.0163827,0.0336155,1.451,-1.06829,-4.69968
2.71906,-0.0404664,-0.764245,0.0872545,-1.78447,0.0163827,0.0336155,1.44291,-1.07009,-4.69995
2.71906,-0.0404664,-0.764245,0.0872545,-1.78447,0.0163827,0.0336155,1.43798,-1.07274,-4.69925
2.71906,-0.0404664,-0.764245,0.0872545,-1.78447,0.0163827,0.0336155,1.42873,-1.0738,-4.70171
2.71906,-0.0404494,-0.764245,0.0872503,-1.78446,0.0163752,0.0336283,1.43648,-1.06843,-4.70179
2.71906,-0.0404494,-0.764245,0.0872503,-1.78446,0.0163752,0.0336283,1.43767,-1.06974,-4.69905
2.71906,-0.0404494,-0.764245,0.0872503,-1.78446,0.0163752,0.0336283,1.43178,-1.07412,-4.70036
2.71906,-0.0404494,-0.764245,0.0872503,-1.78446,0.0163752,0.0336283,1.432,-1.0763,-4.7004
2.71906,-0.0404494,-0.764245,0.0872503,-1.78446,0.0163752,0.0336283,1.42359,-1.07413,-4.70081
2.71906,-0.0404494,-0.764245,0.0872503,-1.78446,0.0163752,0.0336283,1.42464,-1.07413,-4.70471
2.71906,-0.0404494,-0.764245,0.0872503,-1.78446,0.0163752,0.0336283,1.42176,-1.07655,-4.70556
2.71906,-0.0404494,-0.764245,0.0872503,-1.78446,0.0163752,0.0336283,1.42669,-1.07391,-4.70626
2.71906,-0.0404494,-0.764245,0.0872503,-1.78446,0.0163752,0.0336283,1.42851,-1.07172,-4.70786
2.71906,-0.0404494,-0.764245,0.0872503,-1.78446,0.0163752,0.0336283,1.43339,-1.06914,-4.7025
2.71906,-0.0404494,-0.764245,0.0872503,-1.78446,0.0163752,0.0336283,1.42814,-1.06878,-4.69537
2.71906,-0.0404494,-0.764245,0.0872503,-1.78446,0.0163752,0.0336283,1.42833,-1.07084,-4.69537
2.71906,-0.0404494,-0.764245,0.0872503,-1.78446,0.0163752,0.0336283,1.42937,-1.07052,-4.6929
2.71906,-0.0404494,-0.764245,0.0872503,-1.78446,0.0163752,0.0336283,1.43352,-1.07012,-4.69599
2.71906,-0.0404494,-0.764245,0.0872503,-1.78446,0.0163752,0.0336283,1.43565,-1.06984,-4.69746
2.71906,-0.0404494,-0.764245,0.0872503,-1.78446,0.0163752,0.0336283,1.43169,-1.07229,-4.70056
2.71906,-0.0404494,-0.764245,0.0872503,-1.78446,0.0163752,0.0336283,1.43387,-1.07416,-4.70212
2.71906,-0.0404494,-0.764245,0.0872503,-1.78446,0.0163752,0.0336283,1.43803,-1.07369,-4.69895
2.71906,-0.0404494,-0.764245,0.0872503,-1.78446,0.0163752,0.0336283,1.43185,-1.07441,-4.70055
2.71906,-0.0404494,-0.764245,0.0872503,-1.78446,0.0163752,0.0336283,1.43156,-1.07125,-4.70078
2.71906,-0.0404408,-0.764228,0.0872524,-1.78446,0.0163955,0.033607,1.42943,-1.07132,-4.69917
2.71906,-0.0404408,-0.764228,0.0872524,-1.78446,0.0163955,0.033607,1.43459,-1.07077,-4.6999
2.71906,-0.0404408,-0.764228,0.0872524,-1.78446,0.0163955,0.033607,1.44077,-1.06999,-4.69825
2.71906,-0.0404408,-0.764228,0.0872524,-1.78446,0.0163955,0.033607,1.43661,-1.06982,-4.70133
2.71906,-0.0404408,-0.764228,0.0872524,-1.78446,0.0163955,0.033607,1.43162,-1.07121,-4.70076
2.71906,-0.0404408,-0.764228,0.0872524,-1.78446,0.0163955,0.033607,1.43178,-1.07311,-4.70061
2.71906,-0.0404408,-0.764228,0.0872524,-1.78446,0.0163955,0.033607,1.43381,-1.07277,-4.70204
2.71906,-0.0404408,-0.764228,0.0872524,-1.78446,0.0163955,0.033607,1.42751,-1.07167,-4.70391
2.71906,-0.0404408,-0.764228,0.0872524,-1.78446,0.0163955,0.033607,1.42553,-1.07217,-4.70261
2.71906,-0.0404408,-0.764228,0.0872524,-1.78446,0.0163955,0.033607,1.4286,-1.07184,-4.70182
2.71906,-0.0404408,-0.764228,0.0872524,-1.78446,0.0163955,0.033607,1.43872,-1.06982,-4.70308
2.71906,-0.0404408,-0.764228,0.0872524,-1.78446,0.0163955,0.033607,1.43649,-1.06809,-4.70163
2.71906,-0.0404408,-0.764228,0.0872524,-1.78446,0.0163955,0.033607,1.44282,-1.06924,-4.69985
2.71906,-0.0404408,-0.764228,0.0872524,-1.78446,0.0163955,0.033607,1.43748,-1.06819,-4.69939
2.71906,-0.0404408,-0.764228,0.0872524,-1.78446,0.0163955,0.033607,1.43559,-1.07044,-4.69785
2.71906,-0.0404408,-0.764228,0.0872524,-1.78446,0.0163955,0.033607,1.43744,-1.0683,-4.69944
2.71906,-0.0404408,-0.764228,0.0872524,-1.78446,0.0163955,0.033607,1.4436,-1.06759,-4.69779
2.71906,-0.0404408,-0.764228,0.0872524,-1.78446,0.0163955,0.033607,1.43747,-1.06825,-4.69321
2.71906,-0.0404408,-0.764228,0.0872524,-1.78446,0.0163955,0.033607,1.43547,-1.06956,-4.69146
2.71906,-0.0404558,-0.764224,0.0872588,-1.78446,0.0163731,0.0336229,1.43039,-1.07013,-4.69075
2.71906,-0.0404558,-0.764224,0.0872588,-1.78446,0.0163731,0.0336229,1.43469,-1.07163,-4.6937
2.71906,-0.0404558,-0.764224,0.0872588,-1.78446,0.0163731,0.0336229,1.43597,-1.07279,-4.6976
2.71906,-0.0404558,-0.764224,0.0872588,-1.78446,0.0163731,0.0336229,1.43062,-1.07143,-4.70315
2.71906,-0.0404558,-0.764224,0.0872588,-1.78446,0.0163731,0.0336229,1.43346,-1.06911,-4.70247
2.71906,-0.0404558,-0.764224,0.0872588,-1.78446,0.0163731,0.0336229,1.43574,-1.07096,-4.69783
2.71906,-0.0404558,-0.764224,0.0872588,-1.78446,0.0163731,0.0336229,1.43491,-1.07411,-4.69977
2.71906,-0.0404558,-0.764224,0.0872588,-1.78446,0.0163731,0.0336229,1.42875,-1.0748,-4.70138
2.71906,-0.0404558,-0.764224,0.0872588,-1.78446,0.0163731,0.0336229,1.43078,-1.0746,-4.7029
2.71906,-0.0404558,-0.764224,0.0872588,-1.78446,0.0163731,0.0336229,1.42849,-1.07164,-4.70162
2.71906,-0.0404558,-0.764224,0.0872588,-1.78446,0.0163731,0.0336229,1.43779,-1.07064,-4.69923
2.71906,-0.0404558,-0.764224,0.0872588,-1.78446,0.0163731,0.0336229,1.4367,-1.07072,-4.70148
2.71906,-0.0404558,-0.764224,0.0872588,-1.78446,0.0163731,0.0336229,1.43786,-1.07223,-4.69886
2.71906,-0.0404558,-0.764224,0.0872588,-1.78446,0.0163731,0.0336229,1.43162,-1.07285,-4.70043
2.71906,-0.0404558,-0.764224,0.0872588,-1.78446,0.0163731,0.0336229,1.42939,-1.0711,-4.699
2.71906,-0.0404558,-0.764224,0.0872588,-1.78446,0.0163731,0.0336229,1.42638,-1.07265,-4.69966
2.71906,-0.0404558,-0.764224,0.0872588,-1.78446,0.0163731,0.0336229,1.42644,-1.07283,-4.69981
2.71906,-0.0404558,-0.764224,0.0872588,-1.78446,0.0163731,0.0336229,1.42649,-1.07293,-4.69988
2.71906,-0.0404558,-0.764224,0.0872588,-1.78446,0.0163731,0.0336229,1.43477,-1.07208,-4.69982
2.71906,-0.0404558,-0.764224,0.0872588,-1.78446,0.0163731,0.0336229,1.43855,-1.06915,-4.70291
2.71906,-0.0404558,-0.764224,0.0872588,-1.78446,0.0163731,0.0336229,1.43061,-1.07251,-4.70287
2.71906,-0.0404451,-0.764231,0.0872503,-1.78445,0.0163827,0.0336176,1.43057,-1.07147,-4.70317
2.71906,-0.0404451,-0.764231,0.0872503,-1.78445,0.0163827,0.0336176,1.4316,-1.07128,-4.70085
2.71906,-0.0404451,-0.764231,0.0872503,-1.78445,0.0163827,0.0336176,1.42347,-1.07333,-4.70071
2.71906,-0.0404451,-0.764231,0.0872503,-1.78445,0.0163827,0.0336176,1.42574,-1.07506,-4.70216
2.71906,-0.0404451,-0.764231,0.0872503,-1.78445,0.0163827,0.0336176,1.42782,-1.07491,-4.70373
2.71906,-0.0404451,-0.764231,0.0872503,-1.78445,0.0163827,0.0336176,1.42489,-1.07726,-4.70452
2.71906,-0.0404451,-0.764231,0.0872503,-1.78445,0.0163827,0.0336176,1.42975,-1.07435,-4.70542
2.71906,-0.0404451,-0.764231,0.0872503,-1.78445,0.0163827,0.0336176,1.42357,-1.0752,-4.70711
2.71906,-0.0404451,-0.764231,0.0872503,-1.78445,0.0163827,0.0336176,1.42264,-1.07575,-4.70322
2.71906,-0.0404451,-0.764231,0.0872503,-1.78445,0.0163827,0.0336176,1.4265,-1.07314,-4.70001
2.71906,-0.0404451,-0.764231,0.0872503,-1.78445,0.0163827,0.0336176,1.42546,-1.07321,-4.70225
2.71906,-0.0404451,-0.764231,0.0872503,-1.78445,0.0163827,0.0336176,1.42849,-1.07267,-4.70129
2.71906,-0.0404451,-0.764231,0.0872503,-1.78445,0.0163827,0.0336176,1.42543,-1.07311,-4.70216
2.71906,-0.0404451,-0.764231,0.0872503,-1.78445,0.0163827,0.0336176,1.42339,-1.07333,-4.70068
2.71906,-0.0404451,-0.764231,0.0872503,-1.78445,0.0163827,0.0336176,1.42315,-1.07098,-4.70088
2.71906,-0.0404451,-0.764231,0.0872503,-1.78445,0.0163827,0.0336176,1.42658,-1.07314,-4.7
2.71906,-0.0404451,-0.764231,0.0872503,-1.78445,0.0163827,0.0336176,1.42859,-1.07283,-4.70147
2.71906,-0.0404451,-0.764231,0.0872503,-1.78445,0.0163827,0.0336176,1.43683,-1.072,-4.70143
2.71906,-0.0404451,-0.764231,0.0872503,-1.78445,0.0163827,0.0336176,1.43675,-1.07077,-4.70156
2.71906,-0.0404451,-0.764231,0.0872503,-1.78445,0.0163827,0.0336176,1.43155,-1.07113,-4.7007
2.71906,-0.0404494,-0.764224,0.0872567,-1.78445,0.0163955,0.0336048,1.43174,-1.07309,-4.70064
2.71906,-0.0404494,-0.764224,0.0872567,-1.78445,0.0163955,0.0336048,1.43158,-1.07217,-4.70047
2.71906,-0.0404494,-0.764224,0.0872567,-1.78445,0.0163955,0.0336048,1.43676,-1.07181,-4.70132
2.71906,-0.0404494,-0.764224,0.0872567,-1.78445,0.0163955,0.0336048,1.44271,-1.06873,-4.69982
2.71906,-0.0404494,-0.764224,0.0872567,-1.78445,0.0163955,0.0336048,1.43055,-1.07223,-4.70309
2.71906,-0.0404494,-0.764224,0.0872567,-1.78445,0.0163955,0.0336048,1.42659,-1.07322,-4.70005
2.71906,-0.0404494,-0.764224,0.0872567,-1.78445,0.0163955,0.0336048,1.43046,-1.06969,-4.70339
2.71906,-0.0404494,-0.764224,0.0872567,-1.78445,0.0163955,0.0336048,1.43034,-1.06768,-4.70343
2.71906,-0.0404494,-0.764224,0.0872567,-1.78445,0.0163955,0.0336048,1.43358,-1.06922,-4.70257
2.71906,-0.0404494,-0.764224,0.0872567,-1.78445,0.0163955,0.0336048,1.4335,-1.06991,-4.7024
2.71906,-0.0404494,-0.764224,0.0872567,-1.78445,0.0163955,0.0336048,1.43463,-1.07054,-4.70017
2.71906,-0.0404494,-0.764224,0.0872567,-1.78445,0.0163955,0.0336048,1.43344,-1.06978,-4.70226
2.71906,-0.0404494,-0.764224,0.0872567,-1.78445,0.0163955,0.0336048,1.43285,-1.07424,-4.70434
2.71906,-0.0404494,-0.764224,0.0872567,-1.78445,0.0163955,0.0336048,1.43083,-1.07455,-4.70288
2.71906,-0.0404494,-0.764224,0.0872567,-1.78445,0.0163955,0.0336048,1.4318,-1.07325,-4.70079
2.71906,-0.0404494,-0.764224,0.0872567,-1.78445,0.0163955,0.0336048,1.42899,-1.07679,-4.70136
2.71906,-0.0404494,-0.764224,0.0872567,-1.78445,0.0163955,0.0336048,1.42589,-1.07715,-4.70219
2.71906,-0.0404494,-0.764224,0.0872567,-1.78445,0.0163955,0.0336048,1.42596,-1.07733,-4.70235
2.71906,-0.0404494,-0.764224,0.0872567,-1.78445,0.0163955,0.0336048,1.42876,-1.07444,-4.7016
2.71906,-0.0404494,-0.764224,0.0872567,-1.78445,0.0163955,0.0336048,1.43423,-1.07657,-4.70239
2.71907,-0.0404579,-0.764224,0.0872588,-1.78446,0.0163795,0.0336379,1.43193,-1.07477,-4.70087
2.71907,-0.0404579,-0.764224,0.0872588,-1.78446,0.0163795,0.0336379,1.4359,-1.07285,-4.6981
2.71907,-0.0404579,-0.764224,0.0872588,-1.78446,0.0163795,0.0336379,1.43174,-1.07315,-4.69491
2.71907,-0.0404579,-0.764224,0.0872588,-1.78446,0.0163795,0.0336379,1.42946,-1.07133,-4.69341
2.71907,-0.0404579,-0.764224,0.0872588,-1.78446,0.0163795,0.0336379,1.43284,-1.07327,-4.69238
2.71907,-0.0404579,-0.764224,0.0872588,-1.78446,0.0163795,0.0336379,1.42861,-1.07278,-4.69525
2.71907,-0.0404579,-0.764224,0.0872588,-1.78446,0.0163795,0.0336379,1.42961,-1.07271,-4.69909
2.71907,-0.0404579,-0.764224,0.0872588,-1.78446,0.0163795,0.0336379,1.42113,-1.07124,-4.69931
2.71907,-0.0404579,-0.764224,0.0872588,-1.78446,0.0163795,0.0336379,1.42513,-1.06967,-4.70261
2.71907,-0.0404579,-0.764224,0.0872588,-1.78446,0.0163795,0.0336379,1.42616,-1.06936,-4.70014
2.71907,-0.0404579,-0.764224,0.0872588,-1.78446,0.0163795,0.0336379,1.43077,-1.07324,-4.70295
2.71907,-0.0404579,-0.764224,0.0872588,-1.78446,0.0163795,0.0336379,1.42974,-1.07449,-4.70509
2.71907,-0.0404579,-0.764224,0.0872588,-1.78446,0.0163795,0.0336379,1.43186,-1.0744,-4.70057
2.71907,-0.0404579,-0.764224,0.0872588,-1.78446,0.0163795,0.0336379,1.43336,-1.06875,-4.70259
2.71907,-0.0404579,-0.764224,0.0872588,-1.78446,0.0163795,0.0336379,1.42928,-1.07015,-4.69916
2.71907,-0.0404579,-0.764224,0.0872588,-1.78446,0.0163795,0.0336379,1.42922,-1.07009,-4.69912
2.71907,-0.0404579,-0.764224,0.0872588,-1.78446,0.0163795,0.0336379,1.43539,-1.06927,-4.6974
2.71907,-0.0404579,-0.764224,0.0872588,-1.78446,0.0163795,0.0336379,1.42921,-1.06998,-4.69903
2.71907,-0.0404579,-0.764224,0.0872588,-1.78446,0.0163795,0.0336379,1.42924,-1.07008,-4.69911
2.71907,-0.0404579,-0.764224,0.0872588,-1.78446,0.0163795,0.0336379,1.42734,-1.0722,-4.69745
2.71905,-0.0404558,-0.764218,0.0872588,-1.78446,0.016355,0.0336102,1.42736,-1.07216,-4.69744
2.71905,-0.0404558,-0.764218,0.0872588,-1.78446,0.016355,0.0336102,1.42448,-1.07449,-4.69818
2.71905,-0.0404558,-0.764218,0.0872588,-1.78446,0.016355,0.0336102,1.425,-1.07909,-4.69817
2.71905,-0.0404558,-0.764218,0.0872588,-1.78446,0.016355,0.0336102,1.42912,-1.07876,-4.70129
2.71905,-0.0404558,-0.764218,0.0872588,-1.78446,0.016355,0.0336102,1.43806,-1.07378,-4.69904
2.71905,-0.0404558,-0.764218,0.0872588,-1.78446,0.016355,0.0336102,1.43982,-1.071,-4.70056
2.71905,-0.0404558,-0.764218,0.0872588,-1.78446,0.016355,0.0336102,1.43033,-1.07009,-4.7031
2.71905,-0.0404558,-0.764218,0.0872588,-1.78446,0.016355,0.0336102,1.43354,-1.07167,-4.70219
2.71905,-0.0404558,-0.764218,0.0872588,-1.78446,0.016355,0.0336102,1.43479,-1.07357,-4.69977
2.71905,-0.0404558,-0.764218,0.0872588,-1.78446,0.016355,0.0336102,1.435,-1.07462,-4.70005
2.71905,-0.0404558,-0.764218,0.0872588,-1.78446,0.016355,0.0336102,1.43074,-1.07317,-4.70332
2.71905,-0.0404558,-0.764218,0.0872588,-1.78446,0.016355,0.0336102,1.43177,-1.07301,-4.701
2.71905,-0.0404558,-0.764218,0.0872588,-1.78446,0.016355,0.0336102,1.43176,-1.07299,-4.70101
2.71905,-0.0404558,-0.764218,0.0872588,-1.78446,0.016355,0.0336102,1.43163,-1.07215,-4.70085
2.71905,-0.0404558,-0.764218,0.0872588,-1.78446,0.016355,0.0336102,1.43348,-1.07005,-4.7025
2.71905,-0.0404558,-0.764218,0.0872588,-1.78446,0.016355,0.0336102,1.42972,-1.07293,-4.6993
2.71905,-0.0404558,-0.764218,0.0872588,-1.78446,0.016355,0.0336102,1.43069,-1.07172,-4.70339
2.71905,-0.0404558,-0.764218,0.0872588,-1.78446,0.016355,0.0336102,1.4306,-1.07136,-4.70351
2.71905,-0.0404558,-0.764218,0.0872588,-1.78446,0.016355,0.0336102,1.4284,-1.07061,-4.70176
2.71905,-0.0404558,-0.764218,0.0872588,-1.78446,0.016355,0.0336102,1.43163,-1.07226,-4.70092
2.71906,-0.0404622,-0.764231,0.0872524,-1.78446,0.0163731,0.0336219,1.43035,-1.07028,-4.70318
2.71906,-0.0404622,-0.764231,0.0872524,-1.78446,0.0163731,0.0336219,1.43655,-1.06954,-4.70156
2.71906,-0.0404622,-0.764231,0.0872524,-1.78446,0.0163731,0.0336219,1.43636,-1.06747,-4.7015
2.71906,-0.0404622,-0.764231,0.0872524,-1.78446,0.0163731,0.0336219,1.42728,-1.07062,-4.70402
2.71906,-0.0404622,-0.764231,0.0872524,-1.78446,0.0163731,0.0336219,1.44091,-1.0711,-4.69843
2.71906,-0.0404622,-0.764231,0.0872524,-1.78446,0.0163731,0.0336219,1.44294,-1.06982,-4.70025
2.71906,-0.0404622,-0.764231,0.0872524,-1.78446,0.0163731,0.0336219,1.44588,-1.06755,-4.69952
2.71906,-0.0404622,-0.764231,0.0872524,-1.78446,0.0163731,0.0336219,1.43889,-1.07147,-4.70317
2.71906,-0.0404622,-0.764231,0.0872524,-1.78446,0.0163731,0.0336219,1.43369,-1.07199,-4.70243
2.71906,-0.0404622,-0.764231,0.0872524,-1.78446,0.0163731,0.0336219,1.43364,-1.0718,-4.70227
2.71906,-0.0404622,-0.764231,0.0872524,-1.78446,0.0163731,0.0336219,1.43051,-1.07198,-4.70298
2.71906,-0.0404622,-0.764231,0.0872524,-1.78446,0.0163731,0.0336219,1.4339,-1.07411,-4.70209
2.71906,-0.0404622,-0.764231,0.0872524,-1.78446,0.0163731,0.0336219,1.43179,-1.07389,-4.70063
2.71906,-0.0404622,-0.764231,0.0872524,-1.78446,0.0163731,0.0336219,1.43587,-1.07334,-4.70359
2.71906,-0.0404622,-0.764231,0.0872524,-1.78446,0.0163731,0.0336219,1.43618,-1.07585,-4.70354
2.71906,-0.0404622,-0.764231,0.0872524,-1.78446,0.0163731,0.0336219,1.43623,-1.07604,-4.70369
2.71906,-0.0404622,-0.764231,0.0872524,-1.78446,0.0163731,0.0336219,1.4362,-1.07616,-4.70375
2.71906,-0.0404622,-0.764231,0.0872524,-1.78446,0.0163731,0.0336219,1.43375,-1.07249,-4.70239
2.71906,-0.0404622,-0.764231,0.0872524,-1.78446,0.0163731,0.0336219,1.43469,-1.07214,-4.69989
2.71906,-0.0404622,-0.764231,0.0872524,-1.78446,0.0163731,0.0336219,1.43775,-1.0713,-4.69909
2.71906,-0.0404643,-0.764235,0.0872609,-1.78446,0.0163603,0.0336368,1.43682,-1.07155,-4.70156
2.71906,-0.0404643,-0.764235,0.0872609,-1.78446,0.0163603,0.0336368,1.434,-1.07412,-4.70251
2.71906,-0.0404643,-0.764235,0.0872609,-1.78446,0.0163603,0.0336368,1.44038,-1.07566,-4.70062
2.71906,-0.0404643,-0.764235,0.0872609,-1.78446,0.0163603,0.0336368,1.43402,-1.07439,-4.70227
2.71906,-0.0404643,-0.764235,0.0872609,-1.78446,0.0163603,0.0336368,1.4309,-1.07467,-4.70304
2.71906,-0.0404643,-0.764235,0.0872609,-1.78446,0.0163603,0.0336368,1.43196,-1.07455,-4.70072
2.71906,-0.0404643,-0.764235,0.0872609,-1.78446,0.0163603,0.0336368,1.44225,-1.07335,-4.70212
2.71906,-0.0404643,-0.764235,0.0872609,-1.78446,0.0163603,0.0336368,1.43818,-1.07389,-4.70529
2.71906,-0.0404643,-0.764235,0.0872609,-1.78446,0.0163603,0.0336368,1.4391,-1.07362,-4.70902
2.71906,-0.0404643,-0.764235,0.0872609,-1.78446,0.0163603,0.0336368,1.44011,-1.07334,-4.7065
2.71906,-0.0404643,-0.764235,0.0872609,-1.78446,0.0163603,0.0336368,1.43799,-1.0725,-4.71141
2.71906,-0.0404643,-0.764235,0.0872609,-1.78446,0.0163603,0.0336368,1.43669,-1.07065,-4.71382
2.71906,-0.0404643,-0.764235,0.0872609,-1.78446,0.0163603,0.0336368,1.43242,-1.07061,-4.71081
2.71906,-0.0404643,-0.764235,0.0872609,-1.78446,0.0163603,0.0336368,1.43045,-1.07086,-4.70315
2.71906,-0.0404643,-0.764235,0.0872609,-1.78446,0.0163603,0.0336368,1.42771,-1.07467,-4.70355
2.71906,-0.0404643,-0.764235,0.0872609,-1.78446,0.0163603,0.0336368,1.42881,-1.07358,-4.70159
2.71906,-0.0404643,-0.764235,0.0872609,-1.78446,0.0163603,0.0336368,1.43294,-1.07424,-4.70442
2.71906,-0.0404643,-0.764235,0.0872609,-1.78446,0.0163603,0.0336368,1.4422,-1.07327,-4.70208
2.71906,-0.0404643,-0.764235,0.0872609,-1.78446,0.0163603,0.0336368,1.44118,-1.07343,-4.70436
2.71906,-0.0404643,-0.764235,0.0872609,-1.78446,0.0163603,0.0336368,1.43704,-1.07392,-4.7075
2.71908,-0.0404622,-0.764235,0.0872567,-1.78446,0.0163934,0.0336176,1.43701,-1.07383,-4.70741
2.71908,-0.0404622,-0.764235,0.0872567,-1.78446,0.0163934,0.0336176,1.4327,-1.0723,-4.70446
2.71908,-0.0404622,-0.764235,0.0872567,-1.78446,0.0163934,0.0336176,1.43372,-1.07104,-4.70234
2.71908,-0.0404622,-0.764235,0.0872567,-1.78446,0.0163934,0.0336176,1.43084,-1.07337,-4.70309
2.71908,-0.0404622,-0.764235,0.0872567,-1.78446,0.0163934,0.0336176,1.43171,-1.07246,-4.70675
2.71908,-0.0404622,-0.764235,0.0872567,-1.78446,0.0163934,0.0336176,1.43094,-1.06594,-4.70688
2.71908,-0.0404622,-0.764235,0.0872567,-1.78446,0.0163934,0.0336176,1.42371,-1.0667,-4.70461
2.71908,-0.0404622,-0.764235,0.0872567,-1.78446,0.0163934,0.0336176,1.42491,-1.06742,-4.70247
2.71908,-0.0404622,-0.764235,0.0872567,-1.78446,0.0163934,0.0336176,1.42992,-1.06491,-4.70329
2.71908,-0.0404622,-0.764235,0.0872567,-1.78446,0.0163934,0.0336176,1.43,-1.06612,-4.70313
2.71908,-0.0404622,-0.764235,0.0872567,-1.78446,0.0163934,0.0336176,1.43003,-1.0662,-4.70319
2.71908,-0.0404622,-0.764235,0.0872567,-1.78446,0.0163934,0.0336176,1.43331,-1.06776,-4.7023
2.71908,-0.0404622,-0.764235,0.0872567,-1.78446,0.0163934,0.0336176,1.43053,-1.07063,-4.70307
2.71908,-0.0404622,-0.764235,0.0872567,-1.78446,0.0163934,0.0336176,1.43362,-1.07019,-4.7022
2.71908,-0.0404622,-0.764235,0.0872567,-1.78446,0.0163934,0.0336176,1.43465,-1.07022,-4.70613
2.71908,-0.0404622,-0.764235,0.0872567,-1.78446,0.0163934,0.0336176,1.43263,-1.07064,-4.70477
2.71908,-0.0404622,-0.764235,0.0872567,-1.78446,0.0163934,0.0336176,1.43848,-1.06742,-4.7032
2.71908,-0.0404622,-0.764235,0.0872567,-1.78446,0.0163934,0.0336176,1.44158,-1.06716,-4.70243
2.71908,-0.0404622,-0.764235,0.0872567,-1.78446,0.0163934,0.0336176,1.43569,-1.07166,-4.7038
2.71907,-0.0404472,-0.764241,0.0872652,-1.78446,0.016387,0.0336091,1.43974,-1.06988,-4.70074
2.71907,-0.0404472,-0.764241,0.0872652,-1.78446,0.016387,0.0336091,1.44224,-1.07404,-4.70207
2.71907,-0.0404472,-0.764241,0.0872652,-1.78446,0.016387,0.0336091,1.44222,-1.07395,-4.702
2.71907,-0.0404472,-0.764241,0.0872652,-1.78446,0.016387,0.0336091,1.44213,-1.07378,-4.70187
2.71907,-0.0404472,-0.764241,0.0872652,-1.78446,0.016387,0.0336091,1.4359,-1.07372,-4.70338
2.71907,-0.0404472,-0.764241,0.0872652,-1.78446,0.016387,0.0336091,1.43534,-1.06811,-4.70374
2.71907,-0.0404472,-0.764241,0.0872652,-1.78446,0.016387,0.0336091,1.43026,-1.06888,-4.70319
2.71907,-0.0404472,-0.764241,0.0872652,-1.78446,0.016387,0.0336091,1.43782,-1.07061,-4.69919
2.71907,-0.0404472,-0.764241,0.0872652,-1.78446,0.016387,0.0336091,1.42862,-1.07184,-4.70177
2.71907,-0.0404472,-0.764241,0.0872652,-1.78446,0.016387,0.0336091,1.42814,-1.06733,-4.70189
2.71907,-0.0404472,-0.764241,0.0872652,-1.78446,0.016387,0.0336091,1.42607,-1.06759,-4.70036
2.71907,-0.0404472,-0.764241,0.0872652,-1.78446,0.016387,0.0336091,1.42198,-1.06809,-4.70351
2.71907,-0.0404472,-0.764241,0.0872652,-1.78446,0.016387,0.0336091,1.42401,-1.06775,-4.70496
2.71907,-0.0404472,-0.764241,0.0872652,-1.78446,0.016387,0.0336091,1.42339,-1.07196,-4.70112
2.71907,-0.0404472,-0.764241,0.0872652,-1.78446,0.016387,0.0336091,1.41942,-1.07446,-4.70423
2.71907,-0.0404472,-0.764241,0.0872652,-1.78446,0.016387,0.0336091,1.42043,-1.07422,-4.70184
2.71907,-0.0404472,-0.764241,0.0872652,-1.78446,0.016387,0.0336091,1.4256,-1.07379,-4.70262
2.71907,-0.0404472,-0.764241,0.0872652,-1.78446,0.016387,0.0336091,1.42558,-1.0738,-4.70265
2.71907,-0.0404472,-0.764241,0.0872652,-1.78446,0.016387,0.0336091,1.43449,-1.06877,-4.70031
2.71907,-0.0404472,-0.764241,0.0872652,-1.78446,0.016387,0.0336091,1.42937,-1.0693,-4.6996
2.71906,-0.0404472,-0.76422,0.0872567,-1.78446,0.0163838,0.0336176,1.42928,-1.06913,-4.69947
2.71906,-0.0404472,-0.76422,0.0872567,-1.78446,0.0163838,0.0336176,1.42972,-1.07355,-4.69928
2.71906,-0.0404472,-0.76422,0.0872567,-1.78446,0.0163838,0.0336176,1.43572,-1.07075,-4.69763
2.71906,-0.0404472,-0.76422,0.0872567,-1.78446,0.0163838,0.0336176,1.42961,-1.07153,-4.69931
2.71906,-0.0404472,-0.76422,0.0872567,-1.78446,0.0163838,0.0336176,1.42541,-1.07169,-4.70262
2.71906,-0.0404472,-0.76422,0.0872567,-1.78446,0.0163838,0.0336176,1.42847,-1.07133,-4.70178
2.71906,-0.0404472,-0.76422,0.0872567,-1.78446,0.0163838,0.0336176,1.42632,-1.07067,-4.70009
2.71906,-0.0404472,-0.76422,0.0872567,-1.78446,0.0163838,0.0336176,1.42848,-1.07118,-4.70171
2.71906,-0.0404472,-0.76422,0.0872567,-1.78446,0.0163838,0.0336176,1.4298,-1.07364,-4.70551
2.71906,-0.0404472,-0.76422,0.0872567,-1.78446,0.0163838,0.0336176,1.43283,-1.07331,-4.70472
2.71906,-0.0404472,-0.76422,0.0872567,-1.78446,0.0163838,0.0336176,1.43062,-1.07154,-4.70325
2.71906,-0.0404472,-0.76422,0.0872567,-1.78446,0.0163838,0.0336176,1.43145,-1.07018,-4.70089
2.71906,-0.0404472,-0.76422,0.0872567,-1.78446,0.0163838,0.0336176,1.4314,-1.06999,-4.70075
2.71906,-0.0404472,-0.76422,0.0872567,-1.78446,0.0163838,0.0336176,1.43157,-1.07197,-4.70072
2.71906,-0.0404472,-0.76422,0.0872567,-1.78446,0.0163838,0.0336176,1.43803,-1.0738,-4.69906
2.71906,-0.0404472,-0.76422,0.0872567,-1.78446,0.0163838,0.0336176,1.44403,-1.0711,-4.69749
2.71906,-0.0404472,-0.76422,0.0872567,-1.78446,0.0163838,0.0336176,1.44092,-1.07147,-4.69829
2.71906,-0.0404472,-0.76422,0.0872567,-1.78446,0.0163838,0.0336176,1.43858,-1.06919,-4.69678
2.71906,-0.0404472,-0.76422,0.0872567,-1.78446,0.0163838,0.0336176,1.43058,-1.07097,-4.697
2.71906,-0.0404472,-0.76422,0.0872567,-1.78446,0.0163838,0.0336176,1.43263,-1.07087,-4.70478
2.71906,-0.0404472,-0.76422,0.0872567,-1.78446,0.0163838,0.0336176,1.42955,-1.07121,-4.70561
2.71908,-0.0404408,-0.764239,0.0872567,-1.78445,0.0163806,0.0336229,1.4319,-1.07328,-4.70695
2.71908,-0.0404408,-0.764239,0.0872567,-1.78445,0.0163806,0.0336229,1.43906,-1.07256,-4.70928
2.71908,-0.0404408,-0.764239,0.0872567,-1.78445,0.0163806,0.0336229,1.44625,-1.07171,-4.70533
2.71908,-0.0404408,-0.764239,0.0872567,-1.78445,0.0163806,0.0336229,1.44401,-1.07007,-4.70391
2.71908,-0.0404408,-0.764239,0.0872567,-1.78445,0.0163806,0.0336229,1.43778,-1.0706,-4.70539
2.71908,-0.0404408,-0.764239,0.0872567,-1.78445,0.0163806,0.0336229,1.43757,-1.06852,-4.7054
2.71908,-0.0404408,-0.764239,0.0872567,-1.78445,0.0163806,0.0336229,1.43547,-1.06943,-4.7037
2.71908,-0.0404408,-0.764239,0.0872567,-1.78445,0.0163806,0.0336229,1.43036,-1.07011,-4.70308
2.71908,-0.0404408,-0.764239,0.0872567,-1.78445,0.0163806,0.0336229,1.4314,-1.06999,-4.70074
2.71908,-0.0404408,-0.764239,0.0872567,-1.78445,0.0163806,0.0336229,1.43137,-1.06989,-4.70066
2.71908,-0.0404408,-0.764239,0.0872567,-1.78445,0.0163806,0.0336229,1.42875,-1.07465,-4.70127
2.71908,-0.0404408,-0.764239,0.0872567,-1.78445,0.0163806,0.0336229,1.42858,-1.07258,-4.70126
2.71908,-0.0404408,-0.764239,0.0872567,-1.78445,0.0163806,0.0336229,1.43042,-1.0701,-4.70306
2.71908,-0.0404408,-0.764239,0.0872567,-1.78445,0.0163806,0.0336229,1.42967,-1.07277,-4.70535
2.71908,-0.0404408,-0.764239,0.0872567,-1.78445,0.0163806,0.0336229,1.43053,-1.07115,-4.70342
2.71908,-0.0404408,-0.764239,0.0872567,-1.78445,0.0163806,0.0336229,1.43777,-1.07138,-4.69912
2.71908,-0.0404408,-0.764239,0.0872567,-1.78445,0.0163806,0.0336229,1.43135,-1.0689,-4.70097
2.71908,-0.0404408,-0.764239,0.0872567,-1.78445,0.0163806,0.0336229,1.43337,-1.06856,-4.70241
2.71908,-0.0404408,-0.764239,0.0872567,-1.78445,0.0163806,0.0336229,1.43137,-1.06878,-4.70087
2.71908,-0.0404408,-0.764239,0.0872567,-1.78445,0.0163806,0.0336229,1.42928,-1.06906,-4.70556
2.71907,-0.0404536,-0.764235,0.0872503,-1.78445,0.0163891,0.0336283,1.43273,-1.07243,-4.70453
2.71907,-0.0404536,-0.764235,0.0872503,-1.78445,0.0163891,0.0336283,1.43172,-1.07253,-4.7007
2.71907,-0.0404536,-0.764235,0.0872503,-1.78445,0.0163891,0.0336283,1.43784,-1.0707,-4.69929
2.71907,-0.0404536,-0.764235,0.0872503,-1.78445,0.0163891,0.0336283,1.43752,-1.06819,-4.69935
2.71907,-0.0404536,-0.764235,0.0872503,-1.78445,0.0163891,0.0336283,1.43767,-1.07016,-4.69933
2.71907,-0.0404536,-0.764235,0.0872503,-1.78445,0.0163891,0.0336283,1.43765,-1.07016,-4.6993
2.71907,-0.0404536,-0.764235,0.0872503,-1.78445,0.0163891,0.0336283,1.43078,-1.07338,-4.69693
2.71907,-0.0404536,-0.764235,0.0872503,-1.78445,0.0163891,0.0336283,1.42446,-1.07326,-4.69837
2.71907,-0.0404536,-0.764235,0.0872503,-1.78445,0.0163891,0.0336283,1.42344,-1.07344,-4.7007
2.71907,-0.0404536,-0.764235,0.0872503,-1.78445,0.0163891,0.0336283,1.42135,-1.07243,-4.69935
2.71907,-0.0404536,-0.764235,0.0872503,-1.78445,0.0163891,0.0336283,1.42726,-1.06926,-4.69786
2.71907,-0.0404536,-0.764235,0.0872503,-1.78445,0.0163891,0.0336283,1.43139,-1.06886,-4.70097
2.71907,-0.0404536,-0.764235,0.0872503,-1.78445,0.0163891,0.0336283,1.43342,-1.06863,-4.7025
2.71907,-0.0404536,-0.764235,0.0872503,-1.78445,0.0163891,0.0336283,1.4396,-1.0679,-4.70084
2.71907,-0.0404536,-0.764235,0.0872503,-1.78445,0.0163891,0.0336283,1.43059,-1.07205,-4.70298
2.71907,-0.0404536,-0.764235,0.0872503,-1.78445,0.0163891,0.0336283,1.43056,-1.07209,-4.70299
2.71907,-0.0404536,-0.764235,0.0872503,-1.78445,0.0163891,0.0336283,1.42621,-1.07068,-4.70622
2.71907,-0.0404536,-0.764235,0.0872503,-1.78445,0.0163891,0.0336283,1.42703,-1.0685,-4.70389
2.71907,-0.0404536,-0.764235,0.0872503,-1.78445,0.0163891,0.0336283,1.43042,-1.07055,-4.70293
2.71907,-0.0404451,-0.764224,0.0872503,-1.78446,0.0163912,0.0336197,1.43141,-1.06915,-4.70076
2.71907,-0.0404451,-0.764224,0.0872503,-1.78446,0.0163912,0.0336197,1.43148,-1.06924,-4.70079
2.71907,-0.0404451,-0.764224,0.0872503,-1.78446,0.0163912,0.0336197,1.4294,-1.06951,-4.70548
2.71907,-0.0404451,-0.764224,0.0872503,-1.78446,0.0163912,0.0336197,1.43242,-1.069,-4.70496
2.71907,-0.0404451,-0.764224,0.0872503,-1.78446,0.0163912,0.0336197,1.43036,-1.06913,-4.70338
2.71907,-0.0404451,-0.764224,0.0872503,-1.78446,0.0163912,0.0336197,1.43041,-1.06941,-4.7036
2.71907,-0.0404451,-0.764224,0.0872503,-1.78446,0.0163912,0.0336197,1.43078,-1.07295,-4.7032
2.71907,-0.0404451,-0.764224,0.0872503,-1.78446,0.0163912,0.0336197,1.42967,-1.07186,-4.70568
2.71907,-0.0404451,-0.764224,0.0872503,-1.78446,0.0163912,0.0336197,1.42959,-1.07177,-4.70561
2.71907,-0.0404451,-0.764224,0.0872503,-1.78446,0.0163912,0.0336197,1.42521,-1.06961,-4.70254
2.71907,-0.0404451,-0.764224,0.0872503,-1.78446,0.0163912,0.0336197,1.42221,-1.07018,-4.70355
2.71907,-0.0404451,-0.764224,0.0872503,-1.78446,0.0163912,0.0336197,1.41633,-1.0732,-4.70499
2.71907,-0.0404451,-0.764224,0.0872503,-1.78446,0.0163912,0.0336197,1.42116,-1.07021,-4.70585
2.71907,-0.0404451,-0.764224,0.0872503,-1.78446,0.0163912,0.0336197,1.42429,-1.07097,-4.70483
2.71907,-0.0404451,-0.764224,0.0872503,-1.78446,0.0163912,0.0336197,1.42445,-1.07298,-4.70477
2.71907,-0.0404451,-0.764224,0.0872503,-1.78446,0.0163912,0.0336197,1.43061,-1.07217,-4.70307
2.71907,-0.0404451,-0.764224,0.0872503,-1.78446,0.0163912,0.0336197,1.43262,-1.07185,-4.70452
2.71907,-0.0404451,-0.764224,0.0872503,-1.78446,0.0163912,0.0336197,1.43596,-1.07382,-4.70352
2.71907,-0.0404451,-0.764224,0.0872503,-1.78446,0.0163912,0.0336197,1.43618,-1.07587,-4.70349
2.71907,-0.0404451,-0.764224,0.0872503,-1.78446,0.0163912,0.0336197,1.43306,-1.0751,-4.70452
2.71907,-0.0404451,-0.764224,0.0872503,-1.78446,0.0163912,0.0336197,1.4298,-1.07357,-4.70547
2.71907,-0.0404558,-0.764239,0.0872524,-1.78444,0.0163816,0.0336325,1.42881,-1.07486,-4.70755
2.71907,-0.0404558,-0.764239,0.0872524,-1.78444,0.0163816,0.0336325,1.42142,-1.07267,-4.70571
2.71907,-0.0404558,-0.764239,0.0872524,-1.78444,0.0163816,0.0336325,1.42238,-1.07243,-4.70335
2.71907,-0.0404558,-0.764239,0.0872524,-1.78444,0.0163816,0.0336325,1.42549,-1.07313,-4.70224
2.71907,-0.0404558,-0.764239,0.0872524,-1.78444,0.0163816,0.0336325,1.42671,-1.07385,-4.70006
2.71907,-0.0404558,-0.764239,0.0872524,-1.78444,0.0163816,0.0336325,1.42781,-1.07497,-4.70371
2.71907,-0.0404558,-0.764239,0.0872524,-1.78444,0.0163816,0.0336325,1.42488,-1.07618,-4.7047
2.71907,-0.0404558,-0.764239,0.0872524,-1.78444,0.0163816,0.0336325,1.42997,-1.0755,-4.70533
2.71907,-0.0404558,-0.764239,0.0872524,-1.78444,0.0163816,0.0336325,1.42377,-1.07623,-4.70697
2.71907,-0.0404558,-0.764239,0.0872524,-1.78444,0.0163816,0.0336325,1.4217,-1.07656,-4.70557
2.71907,-0.0404558,-0.764239,0.0872524,-1.78444,0.0163816,0.0336325,1.42582,-1.07709,-4.70215
2.71907,-0.0404558,-0.764239,0.0872524,-1.78444,0.0163816,0.0336325,1.42996,-1.07662,-4.69902
2.71907,-0.0404558,-0.764239,0.0872524,-1.78444,0.0163816,0.0336325,1.437,-1.07386,-4.70127
2.71907,-0.0404558,-0.764239,0.0872524,-1.78444,0.0163816,0.0336325,1.43412,-1.07619,-4.702
2.71907,-0.0404558,-0.764239,0.0872524,-1.78444,0.0163816,0.0336325,1.43396,-1.07325,-4.70241
2.71907,-0.0404558,-0.764239,0.0872524,-1.78444,0.0163816,0.0336325,1.43057,-1.07119,-4.70335
2.71907,-0.0404558,-0.764239,0.0872524,-1.78444,0.0163816,0.0336325,1.42743,-1.07145,-4.70411
2.71907,-0.0404558,-0.764239,0.0872524,-1.78444,0.0163816,0.0336325,1.42577,-1.0753,-4.70227
2.71907,-0.0404558,-0.764239,0.0872524,-1.78444,0.0163816,0.0336325,1.42528,-1.06973,-4.70266
2.71907,-0.0404472,-0.764231,0.0872609,-1.78444,0.0163795,0.0336197,1.42747,-1.07129,-4.70399
2.71907,-0.0404472,-0.764231,0.0872609,-1.78444,0.0163795,0.0336197,1.42364,-1.0742,-4.70703
2.71907,-0.0404472,-0.764231,0.0872609,-1.78444,0.0163795,0.0336197,1.42494,-1.07724,-4.70448
2.71907,-0.0404472,-0.764231,0.0872609,-1.78444,0.0163795,0.0336197,1.42685,-1.07596,-4.70624
2.71907,-0.0404472,-0.764231,0.0872609,-1.78444,0.0163795,0.0336197,1.42181,-1.07767,-4.70528
2.71907,-0.0404472,-0.764231,0.0872609,-1.78444,0.0163795,0.0336197,1.42376,-1.07623,-4.707
2.71907,-0.0404472,-0.764231,0.0872609,-1.78444,0.0163795,0.0336197,1.42744,-1.0713,-4.70401
2.71907,-0.0404472,-0.764231,0.0872609,-1.78444,0.0163795,0.0336197,1.43037,-1.06886,-4.70316
2.71907,-0.0404472,-0.764231,0.0872609,-1.78444,0.0163795,0.0336197,1.43167,-1.07219,-4.70657
2.71907,-0.0404472,-0.764231,0.0872609,-1.78444,0.0163795,0.0336197,1.42366,-1.07518,-4.70667
2.71907,-0.0404472,-0.764231,0.0872609,-1.78444,0.0163795,0.0336197,1.42054,-1.07557,-4.7075
2.71907,-0.0404472,-0.764231,0.0872609,-1.78444,0.0163795,0.0336197,1.4203,-1.07239,-4.70774
2.71907,-0.0404472,-0.764231,0.0872609,-1.78444,0.0163795,0.0336197,1.42238,-1.07227,-4.70933
2.71907,-0.0404472,-0.764231,0.0872609,-1.78444,0.0163795,0.0336197,1.42258,-1.07538,-4.70906
2.71907,-0.0404472,-0.764231,0.0872609,-1.78444,0.0163795,0.0336197,1.42253,-1.07529,-4.70899
2.71907,-0.0404472,-0.764231,0.0872609,-1.78444,0.0163795,0.0336197,1.41849,-1.07582,-4.70598
2.71907,-0.0404472,-0.764231,0.0872609,-1.78444,0.0163795,0.0336197,1.41631,-1.07559,-4.70456
2.71907,-0.0404472,-0.764231,0.0872609,-1.78444,0.0163795,0.0336197,1.41555,-1.07819,-4.70679
2.71907,-0.0404472,-0.764231,0.0872609,-1.78444,0.0163795,0.0336197,1.4185,-1.07598,-4.70612
2.71907,-0.0404472,-0.764231,0.0872609,-1.78444,0.0163795,0.0336197,1.42657,-1.07306,-4.70607
2.71907,-0.0404345,-0.764241,0.0872524,-1.78445,0.0163742,0.0336315,1.43243,-1.0689,-4.70485
2.71907,-0.0404345,-0.764241,0.0872524,-1.78445,0.0163742,0.0336315,1.42931,-1.06926,-4.70569
2.71907,-0.0404345,-0.764241,0.0872524,-1.78445,0.0163742,0.0336315,1.43039,-1.0691,-4.70333
2.71907,-0.0404345,-0.764241,0.0872524,-1.78445,0.0163742,0.0336315,1.43358,-1.07061,-4.70243
2.71907,-0.0404345,-0.764241,0.0872524,-1.78445,0.0163742,0.0336315,1.43491,-1.07289,-4.69995
2.71907,-0.0404345,-0.764241,0.0872524,-1.78445,0.0163742,0.0336315,1.43176,-1.07248,-4.70063
2.71907,-0.0404345,-0.764241,0.0872524,-1.78445,0.0163742,0.0336315,1.42973,-1.07274,-4.70531
2.71907,-0.0404345,-0.764241,0.0872524,-1.78445,0.0163742,0.0336315,1.43197,-1.07467,-4.70691
2.71907,-0.0404345,-0.764241,0.0872524,-1.78445,0.0163742,0.0336315,1.42984,-1.07379,-4.70566
2.71907,-0.0404345,-0.764241,0.0872524,-1.78445,0.0163742,0.0336315,1.43181,-1.07319,-4.70113
2.71907,-0.0404345,-0.764241,0.0872524,-1.78445,0.0163742,0.0336315,1.43502,-1.07316,-4.70013
2.71907,-0.0404345,-0.764241,0.0872524,-1.78445,0.0163742,0.0336315,1.43363,-1.07069,-4.70248
2.71907,-0.0404345,-0.764241,0.0872524,-1.78445,0.0163742,0.0336315,1.4326,-1.07097,-4.70488
2.71907,-0.0404345,-0.764241,0.0872524,-1.78445,0.0163742,0.0336315,1.43259,-1.07118,-4.70461
2.71907,-0.0404345,-0.764241,0.0872524,-1.78445,0.0163742,0.0336315,1.4336,-1.07086,-4.70212
2.71907,-0.0404345,-0.764241,0.0872524,-1.78445,0.0163742,0.0336315,1.43663,-1.07029,-4.70118
2.71907,-0.0404345,-0.764241,0.0872524,-1.78445,0.0163742,0.0336315,1.43377,-1.07284,-4.70208
2.71907,-0.0404345,-0.764241,0.0872524,-1.78445,0.0163742,0.0336315,1.43067,-1.07321,-4.7029
2.71907,-0.0404345,-0.764241,0.0872524,-1.78445,0.0163742,0.0336315,1.43329,-1.06845,-4.70226
2.71907,-0.0404345,-0.764241,0.0872524,-1.78445,0.0163742,0.0336315,1.42819,-1.06892,-4.7015
2.71907,-0.0404345,-0.764241,0.0872524,-1.78445,0.0163742,0.0336315,1.43554,-1.0687,-4.7038
2.71907,-0.0404472,-0.764231,0.0872545,-1.78446,0.0164115,0.0336272,1.43587,-1.0713,-4.70382
2.71907,-0.0404472,-0.764231,0.0872545,-1.78446,0.0164115,0.0336272,1.43579,-1.07095,-4.70395
2.71907,-0.0404472,-0.764231,0.0872545,-1.78446,0.0164115,0.0336272,1.43598,-1.07292,-4.70388
2.71907,-0.0404472,-0.764231,0.0872545,-1.78446,0.0164115,0.0336272,1.43684,-1.07078,-4.7016
2.71907,-0.0404472,-0.764231,0.0872545,-1.78446,0.0164115,0.0336272,1.43684,-1.07068,-4.70153
2.71907,-0.0404472,-0.764231,0.0872545,-1.78446,0.0164115,0.0336272,1.44094,-1.0702,-4.70458
2.71907,-0.0404472,-0.764231,0.0872545,-1.78446,0.0164115,0.0336272,1.44094,-1.0703,-4.70468
2.71907,-0.0404472,-0.764231,0.0872545,-1.78446,0.0164115,0.0336272,1.4388,-1.07028,-4.70335
2.71907,-0.0404472,-0.764231,0.0872545,-1.78446,0.0164115,0.0336272,1.43679,-1.07155,-4.70149
2.71907,-0.0404472,-0.764231,0.0872545,-1.78446,0.0164115,0.0336272,1.43161,-1.0709,-4.70094
2.71907,-0.0404472,-0.764231,0.0872545,-1.78446,0.0164115,0.0336272,1.43064,-1.07205,-4.70297
2.71907,-0.0404472,-0.764231,0.0872545,-1.78446,0.0164115,0.0336272,1.43259,-1.07071,-4.70473
2.71907,-0.0404472,-0.764231,0.0872545,-1.78446,0.0164115,0.0336272,1.43242,-1.06874,-4.70479
2.71907,-0.0404472,-0.764231,0.0872545,-1.78446,0.0164115,0.0336272,1.43491,-1.0728,-4.70604
2.71907,-0.0404472,-0.764231,0.0872545,-1.78446,0.0164115,0.0336272,1.43387,-1.07305,-4.70846
2.71907,-0.0404472,-0.764231,0.0872545,-1.78446,0.0164115,0.0336272,1.43187,-1.07451,-4.7068
2.71907,-0.0404472,-0.764231,0.0872545,-1.78446,0.0164115,0.0336272,1.4295,-1.07233,-4.70541
2.71907,-0.0404472,-0.764231,0.0872545,-1.78446,0.0164115,0.0336272,1.42538,-1.07271,-4.70232
2.71907,-0.0404472,-0.764231,0.0872545,-1.78446,0.0164115,0.0336272,1.42571,-1.07512,-4.70214
2.71907,-0.0404472,-0.764231,0.0872545,-1.78446,0.0164115,0.0336272,1.42265,-1.07548,-4.70294
2.71907,-0.0404515,-0.764241,0.0872588,-1.78444,0.0164029,0.0336219,1.42159,-1.07562,-4.70528
2.71907,-0.0404515,-0.764241,0.0872588,-1.78444,0.0164029,0.0336219,1.4224,-1.07241,-4.70323
2.71907,-0.0404515,-0.764241,0.0872588,-1.78444,0.0164029,0.0336219,1.41926,-1.07264,-4.70398
2.71907,-0.0404515,-0.764241,0.0872588,-1.78444,0.0164029,0.0336219,1.42052,-1.07559,-4.70133
2.71907,-0.0404515,-0.764241,0.0872588,-1.78444,0.0164029,0.0336219,1.41122,-1.0766,-4.7037
2.71907,-0.0404515,-0.764241,0.0872588,-1.78444,0.0164029,0.0336219,1.41091,-1.07412,-4.70379
2.71907,-0.0404515,-0.764241,0.0872588,-1.78444,0.0164029,0.0336219,1.41194,-1.07287,-4.70169
2.71907,-0.0404515,-0.764241,0.0872588,-1.78444,0.0164029,0.0336219,1.41706,-1.07229,-4.70241
2.71907,-0.0404515,-0.764241,0.0872588,-1.78444,0.0164029,0.0336219,1.42022,-1.07201,-4.70166
2.71907,-0.0404515,-0.764241,0.0872588,-1.78444,0.0164029,0.0336219,1.42446,-1.07207,-4.70471
2.71907,-0.0404515,-0.764241,0.0872588,-1.78444,0.0164029,0.0336219,1.4298,-1.07355,-4.70545
2.71907,-0.0404515,-0.764241,0.0872588,-1.78444,0.0164029,0.0336219,1.43497,-1.07305,-4.70623
2.71907,-0.0404515,-0.764241,0.0872588,-1.78444,0.0164029,0.0336219,1.4441,-1.07008,-4.70388
2.71907,-0.0404515,-0.764241,0.0872588,-1.78444,0.0164029,0.0336219,1.43689,-1.07099,-4.70791
2.71907,-0.0404515,-0.764241,0.0872588,-1.78444,0.0164029,0.0336219,1.43589,-1.07125,-4.7042
2.71907,-0.0404515,-0.764241,0.0872588,-1.78444,0.0164029,0.0336219,1.43061,-1.06986,-4.70357
2.71907,-0.0404515,-0.764241,0.0872588,-1.78444,0.0164029,0.0336219,1.43161,-1.06977,-4.70741
2.71907,-0.0404515,-0.764241,0.0872588,-1.78444,0.0164029,0.0336219,1.43286,-1.07264,-4.7047
2.71907,-0.0404515,-0.764241,0.0872588,-1.78444,0.0164029,0.0336219,1.43493,-1.07299,-4.70619
2.71907,-0.0404515,-0.764241,0.0872588,-1.78444,0.0164029,0.0336219,1.43274,-1.07237,-4.70451
2.71907,-0.0404579,-0.764224,0.0872567,-1.78445,0.0163912,0.0336165,1.4329,-1.07423,-4.7044
2.71907,-0.0404579,-0.764224,0.0872567,-1.78445,0.0163912,0.0336165,1.43086,-1.07457,-4.70296
2.71907,-0.0404579,-0.764224,0.0872567,-1.78445,0.0163912,0.0336165,1.42853,-1.07238,-4.70154
2.71907,-0.0404579,-0.764224,0.0872567,-1.78445,0.0163912,0.0336165,1.42854,-1.07229,-4.70144
2.71907,-0.0404579,-0.764224,0.0872567,-1.78445,0.0163912,0.0336165,1.42777,-1.07484,-4.70365
2.71907,-0.0404579,-0.764224,0.0872567,-1.78445,0.0163912,0.0336165,1.42758,-1.07288,-4.70376
2.71907,-0.0404579,-0.764224,0.0872567,-1.78445,0.0163912,0.0336165,1.43372,-1.07114,-4.70244
2.71907,-0.0404579,-0.764224,0.0872567,-1.78445,0.0163912,0.0336165,1.43378,-1.07214,-4.70212
2.71907,-0.0404579,-0.764224,0.0872567,-1.78445,0.0163912,0.0336165,1.43259,-1.07036,-4.70457
2.71907,-0.0404579,-0.764224,0.0872567,-1.78445,0.0163912,0.0336165,1.43254,-1.07028,-4.70451
2.71907,-0.0404579,-0.764224,0.0872567,-1.78445,0.0163912,0.0336165,1.43033,-1.06854,-4.70301
2.71907,-0.0404579,-0.764224,0.0872567,-1.78445,0.0163912,0.0336165,1.42859,-1.07252,-4.70123
2.71907,-0.0404579,-0.764224,0.0872567,-1.78445,0.0163912,0.0336165,1.43074,-1.07424,-4.70263
2.71907,-0.0404579,-0.764224,0.0872567,-1.78445,0.0163912,0.0336165,1.42812,-1.06889,-4.70148
2.71907,-0.0404579,-0.764224,0.0872567,-1.78445,0.0163912,0.0336165,1.4261,-1.06923,-4.70008
2.71907,-0.0404579,-0.764224,0.0872567,-1.78445,0.0163912,0.0336165,1.42922,-1.06894,-4.69932
2.71907,-0.0404579,-0.764224,0.0872567,-1.78445,0.0163912,0.0336165,1.42922,-1.06883,-4.69923
2.71907,-0.0404579,-0.764224,0.0872567,-1.78445,0.0163912,0.0336165,1.42645,-1.07171,-4.70001
2.71907,-0.0404579,-0.764224,0.0872567,-1.78445,0.0163912,0.0336165,1.43443,-1.06833,-4.69998
2.71907,-0.0404579,-0.764224,0.0872567,-1.78445,0.0163912,0.0336165,1.43167,-1.07116,-4.70069
2.71907,-0.0404515,-0.764222,0.0872503,-1.78443,0.0163891,0.0336187,1.42449,-1.07312,-4.70441
2.71907,-0.0404515,-0.764222,0.0872503,-1.78443,0.0163891,0.0336187,1.42443,-1.07311,-4.70445
2.71907,-0.0404515,-0.764222,0.0872503,-1.78443,0.0163891,0.0336187,1.41729,-1.07404,-4.7023
2.71907,-0.0404515,-0.764222,0.0872503,-1.78443,0.0163891,0.0336187,1.41929,-1.07364,-4.70371
2.71907,-0.0404515,-0.764222,0.0872503,-1.78443,0.0163891,0.0336187,1.42241,-1.07328,-4.70291
2.71907,-0.0404515,-0.764222,0.0872503,-1.78443,0.0163891,0.0336187,1.43091,-1.07449,-4.70284
2.71907,-0.0404515,-0.764222,0.0872503,-1.78443,0.0163891,0.0336187,1.43291,-1.07312,-4.70459
2.71907,-0.0404515,-0.764222,0.0872503,-1.78443,0.0163891,0.0336187,1.43287,-1.07314,-4.70461
2.71907,-0.0404515,-0.764222,0.0872503,-1.78443,0.0163891,0.0336187,1.43473,-1.07092,-4.7062
2.71907,-0.0404515,-0.764222,0.0872503,-1.78443,0.0163891,0.0336187,1.4324,-1.06872,-4.70477
2.71907,-0.0404515,-0.764222,0.0872503,-1.78443,0.0163891,0.0336187,1.42937,-1.0702,-4.70536
2.71907,-0.0404515,-0.764222,0.0872503,-1.78443,0.0163891,0.0336187,1.43244,-1.06871,-4.70478
2.71907,-0.0404515,-0.764222,0.0872503,-1.78443,0.0163891,0.0336187,1.43486,-1.07209,-4.70597
2.71907,-0.0404515,-0.764222,0.0872503,-1.78443,0.0163891,0.0336187,1.43172,-1.07144,-4.70711
2.71907,-0.0404515,-0.764222,0.0872503,-1.78443,0.0163891,0.0336187,1.42963,-1.07161,-4.70552
2.71907,-0.0404515,-0.764222,0.0872503,-1.78443,0.0163891,0.0336187,1.43263,-1.07109,-4.7046
2.71907,-0.0404515,-0.764222,0.0872503,-1.78443,0.0163891,0.0336187,1.43555,-1.06872,-4.70384
2.71907,-0.0404515,-0.764222,0.0872503,-1.78443,0.0163891,0.0336187,1.4307,-1.07246,-4.70289
2.71907,-0.0404515,-0.764222,0.0872503,-1.78443,0.0163891,0.0336187,1.42478,-1.07532,-4.70457
2.71907,-0.0404515,-0.764222,0.0872503,-1.78443,0.0163891,0.0336187,1.42169,-1.07568,-4.70538
2.71907,-0.0404622,-0.764231,0.0872652,-1.78443,0.0163838,0.0336229,1.42079,-1.07777,-4.7076
2.71907,-0.0404622,-0.764231,0.0872652,-1.78443,0.0163838,0.0336229,1.42041,-1.0728,-4.70802
2.71907,-0.0404622,-0.764231,0.0872652,-1.78443,0.0163838,0.0336229,1.42109,-1.07012,-4.70573
2.71907,-0.0404622,-0.764231,0.0872652,-1.78443,0.0163838,0.0336229,1.41624,-1.07314,-4.70489
2.71907,-0.0404622,-0.764231,0.0872652,-1.78443,0.0163838,0.0336229,1.41636,-1.07484,-4.70464
2.71907,-0.0404622,-0.764231,0.0872652,-1.78443,0.0163838,0.0336229,1.4176,-1.0768,-4.70233
2.71907,-0.0404622,-0.764231,0.0872652,-1.78443,0.0163838,0.0336229,1.42071,-1.07655,-4.70165
2.71907,-0.0404622,-0.764231,0.0872652,-1.78443,0.0163838,0.0336229,1.42997,-1.07558,-4.6993
2.71907,-0.0404622,-0.764231,0.0872652,-1.78443,0.0163838,0.0336229,1.43021,-1.07763,-4.69926
2.71907,-0.0404622,-0.764231,0.0872652,-1.78443,0.0163838,0.0336229,1.427,-1.076,-4.70009
2.71907,-0.0404622,-0.764231,0.0872652,-1.78443,0.0163838,0.0336229,1.42803,-1.07592,-4.70391
